;Generated with Cura_SteamEngine 13.12
;FLAVOR:UltiGCode
;TIME:3506      
;MATERIAL:5325      
;MATERIAL2:0         

;Layer count: 145
;LAYER:0
M107
G0 F3600 X92.57 Y85.55 Z0.30
;TYPE:SKIRT
G11
G1 F1200 X93.67 Y84.71 E0.16546
G1 X94.91 Y84.20 E0.32704
G1 X96.05 Y84.05 E0.46514
G1 X127.49 Y84.05 E4.23770
G1 X128.63 Y84.21 E4.37542
G1 X129.87 Y84.72 E4.53701
G1 X130.96 Y85.56 E4.70219
G1 X131.80 Y86.66 E4.86748
G1 X132.31 Y87.90 E5.02868
G1 X132.46 Y89.04 E5.16681
G1 X132.46 Y98.31 E6.28005
G1 X132.57 Y98.40 E6.29743
G1 X133.92 Y99.68 E6.52000
G1 X135.13 Y101.08 E6.74276
G1 X136.19 Y102.60 E6.96513
G1 X137.10 Y104.22 E7.18763
G1 X137.83 Y105.93 E7.41018
G1 X138.38 Y107.69 E7.63225
G1 X138.75 Y109.48 E7.85088
G1 X138.94 Y111.33 E8.07379
G1 X138.94 Y113.21 E8.30047
G1 X138.75 Y115.06 E8.52294
G1 X138.37 Y116.88 E8.74570
G1 X137.80 Y118.64 E8.96809
G1 X137.06 Y120.34 E9.19075
G1 X136.16 Y121.96 E9.41325
G1 X135.09 Y123.47 E9.63554
G1 X133.87 Y124.88 E9.85816
G1 X132.52 Y126.14 E10.08059
G1 X132.46 Y126.19 E10.08983
G1 X132.46 Y135.98 E11.26487
G1 X132.30 Y137.12 E11.40263
G1 X131.79 Y138.36 E11.56380
G1 X130.95 Y139.45 E11.72880
G1 X129.86 Y140.29 E11.89407
G1 X128.61 Y140.80 E12.05561
G1 X127.47 Y140.95 E12.19339
G1 X96.04 Y140.95 E15.96583
G1 X94.90 Y140.79 E16.10378
G1 X93.65 Y140.28 E16.26579
G1 X92.56 Y139.45 E16.43013
G1 X91.73 Y138.35 E16.59499
G1 X91.21 Y137.10 E16.75809
G1 X91.06 Y135.96 E16.89583
G1 X91.06 Y89.02 E22.52851
G1 X91.22 Y87.88 E22.66647
G1 X91.73 Y86.64 E22.82783
G1 X92.57 Y85.55 E22.99294
G0 F3600 X106.10 Y109.59
G1 F1200 X105.70 Y109.83 E23.04949
G1 X105.35 Y110.14 E23.10541
G1 X105.04 Y110.49 E23.16133
G1 X104.80 Y110.89 E23.21788
G1 X104.62 Y111.33 E23.27422
G1 X104.51 Y111.79 E23.33100
G1 X104.47 Y112.25 E23.38697
G1 X104.51 Y112.71 E23.44282
G1 X104.62 Y113.17 E23.49960
G1 X104.80 Y113.61 E23.55594
G1 X105.04 Y114.01 E23.61249
G1 X105.35 Y114.36 E23.66841
G1 X105.70 Y114.67 E23.72432
G1 X106.10 Y114.91 E23.78088
G1 X106.54 Y115.09 E23.83722
G1 X107.00 Y115.20 E23.89412
G1 X107.59 Y115.25 E23.96514
G1 X120.70 Y115.25 E25.53882
G1 X121.22 Y115.20 E25.60190
G1 X121.68 Y115.09 E25.65869
G1 X122.12 Y114.91 E25.71502
G1 X122.52 Y114.67 E25.77158
G1 X122.87 Y114.36 E25.82749
G1 X123.18 Y114.01 E25.88341
G1 X123.42 Y113.61 E25.93997
G1 X123.60 Y113.17 E25.99630
G1 X123.71 Y112.71 E26.05320
G1 X123.75 Y112.25 E26.10894
G1 X123.71 Y111.79 E26.16492
G1 X123.60 Y111.33 E26.22170
G1 X123.42 Y110.89 E26.27804
G1 X123.18 Y110.49 E26.33459
G1 X122.87 Y110.14 E26.39051
G1 X122.52 Y109.83 E26.44642
G1 X122.12 Y109.59 E26.50298
G1 X121.68 Y109.41 E26.55932
G1 X121.22 Y109.30 E26.61622
G1 X120.63 Y109.25 E26.68724
G1 X107.52 Y109.25 E28.26092
G1 X107.00 Y109.30 E28.32400
G1 X106.54 Y109.41 E28.38079
G1 X106.10 Y109.59 E28.43712
G10
G0 F3600 X104.37 Y106.19
;TYPE:WALL-INNER
G11
G1 F1200 X103.46 Y106.75 E28.56532
G1 X102.65 Y107.44 E28.69334
G1 X101.96 Y108.25 E28.82137
G1 X101.40 Y109.16 E28.94956
G1 X100.99 Y110.15 E29.07761
G1 X100.74 Y111.19 E29.20571
G1 X100.66 Y112.25 E29.33379
G1 X100.74 Y113.31 E29.46174
G1 X100.99 Y114.35 E29.58984
G1 X101.40 Y115.34 E29.71789
G1 X101.96 Y116.25 E29.84608
G1 X102.65 Y117.06 E29.97411
G1 X103.46 Y117.75 E30.10213
G1 X104.37 Y118.31 E30.23033
G1 X105.36 Y118.72 E30.35838
G1 X106.40 Y118.97 E30.48647
G1 X107.44 Y119.05 E30.61155
G1 X120.86 Y119.05 E32.22207
G1 X121.82 Y118.97 E32.33861
G1 X122.86 Y118.72 E32.46658
G1 X123.85 Y118.31 E32.59463
G1 X124.76 Y117.75 E32.72283
G1 X125.57 Y117.06 E32.85085
G1 X126.26 Y116.25 E32.97888
G1 X126.82 Y115.34 E33.10708
G1 X127.23 Y114.35 E33.23513
G1 X127.48 Y113.31 E33.36322
G1 X127.56 Y112.25 E33.49119
G1 X127.48 Y111.19 E33.61927
G1 X127.23 Y110.15 E33.74737
G1 X126.82 Y109.16 E33.87542
G1 X126.26 Y108.25 E34.00361
G1 X125.57 Y107.44 E34.13164
G1 X124.76 Y106.75 E34.25966
G1 X123.85 Y106.19 E34.38786
G1 X122.86 Y105.78 E34.51591
G1 X121.82 Y105.53 E34.64400
G1 X120.78 Y105.45 E34.76908
G1 X107.36 Y105.45 E36.37960
G1 X106.40 Y105.53 E36.49614
G1 X105.36 Y105.78 E36.62411
G1 X104.37 Y106.19 E36.75216
G0 F3600 X104.77 Y99.03
G1 F1200 X105.45 Y99.03 E36.83364
G1 X106.09 Y98.84 E36.91394
G1 X106.65 Y98.48 E36.99376
G1 X107.09 Y97.97 E37.07477
G1 X107.37 Y97.36 E37.15451
G1 X107.47 Y96.70 E37.23524
G1 X107.37 Y96.03 E37.31638
G1 X107.09 Y95.42 E37.39623
G1 X106.65 Y94.92 E37.47728
G1 X106.09 Y94.56 E37.55694
G1 X105.44 Y94.37 E37.63739
G1 X104.77 Y94.37 E37.71887
G1 X104.13 Y94.56 E37.79917
G1 X103.57 Y94.92 E37.87899
G1 X103.13 Y95.43 E37.96000
G1 X102.85 Y96.03 E38.03974
G1 X102.75 Y96.70 E38.12034
G1 X102.85 Y97.37 E38.20144
G1 X103.13 Y97.97 E38.28144
G1 X103.57 Y98.48 E38.36250
G1 X104.13 Y98.84 E38.44215
G1 X104.77 Y99.03 E38.52261
G0 F3600 X103.13 Y97.97
G0 X94.86 Y89.28
G1 F1200 X94.92 Y88.88 E38.57033
G1 X95.05 Y88.55 E38.61370
G1 X95.27 Y88.27 E38.65676
G1 X95.57 Y88.04 E38.70164
G1 X95.90 Y87.90 E38.74447
G1 X96.30 Y87.85 E38.79301
G1 X127.23 Y87.85 E42.50485
G1 X127.63 Y87.91 E42.55269
G1 X127.96 Y88.04 E42.59568
G1 X128.24 Y88.26 E42.63890
G1 X128.47 Y88.56 E42.68378
G1 X128.61 Y88.89 E42.72662
G1 X128.66 Y89.29 E42.77529
G1 X128.66 Y100.19 E44.08257
G1 X130.11 Y101.30 E44.30204
G1 X131.17 Y102.31 E44.47751
G1 X132.13 Y103.42 E44.65364
G1 X132.97 Y104.62 E44.82937
G1 X133.68 Y105.90 E45.00557
G1 X134.26 Y107.24 E45.18097
G1 X134.70 Y108.65 E45.35742
G1 X134.99 Y110.06 E45.53070
G1 X135.14 Y111.52 E45.70620
G1 X135.14 Y113.01 E45.88560
G1 X134.99 Y114.48 E46.06235
G1 X134.69 Y115.90 E46.23719
G1 X134.24 Y117.31 E46.41446
G1 X133.66 Y118.65 E46.58955
G1 X132.94 Y119.93 E46.76578
G1 X132.09 Y121.13 E46.94236
G1 X131.14 Y122.23 E47.11691
G1 X130.05 Y123.25 E47.29510
G1 X128.66 Y124.31 E47.50576
G1 X128.66 Y135.72 E48.87460
G1 X128.60 Y136.12 E48.92270
G1 X128.47 Y136.45 E48.96569
G1 X128.25 Y136.74 E49.00925
G1 X127.95 Y136.96 E49.05360
G1 X127.62 Y137.10 E49.09654
G1 X127.22 Y137.15 E49.14534
G1 X96.29 Y137.15 E52.85634
G1 X95.90 Y137.10 E52.90406
G1 X95.56 Y136.96 E52.94807
G1 X95.27 Y136.74 E52.99147
G1 X95.05 Y136.44 E53.03546
G1 X94.91 Y136.11 E53.07878
G1 X94.86 Y135.71 E53.12732
G1 X94.86 Y89.28 E58.69916
G0 F3600 X101.40 Y115.34
G0 X104.76 Y125.27
G1 F1200 X104.12 Y125.46 E58.77941
G1 X103.57 Y125.82 E58.85863
G1 X103.12 Y126.34 E58.94033
G1 X102.85 Y126.94 E59.01949
G1 X102.75 Y127.60 E59.10008
G1 X102.85 Y128.27 E59.18171
G1 X103.13 Y128.88 E59.26102
G1 X103.58 Y129.39 E59.34257
G1 X104.13 Y129.74 E59.42169
G1 X104.77 Y129.93 E59.50215
G1 X105.46 Y129.93 E59.58423
G1 X106.10 Y129.74 E59.66448
G1 X106.65 Y129.38 E59.74371
G1 X107.10 Y128.86 E59.82541
G1 X107.37 Y128.26 E59.90445
G1 X107.47 Y127.60 E59.98530
G1 X107.37 Y126.93 E60.06683
G1 X107.09 Y126.32 E60.14614
G1 X106.64 Y125.81 E60.22769
G1 X106.09 Y125.46 E60.30681
G1 X105.44 Y125.27 E60.38727
G1 X104.76 Y125.27 E60.46935
G0 F3600 X104.82 Y125.67
;TYPE:WALL-OUTER
G1 F1200 X104.29 Y125.83 E60.53593
G1 X103.83 Y126.12 E60.60145
G1 X103.46 Y126.55 E60.66919
G1 X103.24 Y127.05 E60.73465
G1 X103.16 Y127.60 E60.80143
G1 X103.24 Y128.16 E60.86923
G1 X103.47 Y128.66 E60.93479
G1 X103.84 Y129.08 E61.00248
G1 X104.30 Y129.38 E61.06806
G1 X104.83 Y129.53 E61.13462
G1 X105.40 Y129.53 E61.20266
G1 X105.93 Y129.37 E61.26924
G1 X106.39 Y129.07 E61.33475
G1 X106.76 Y128.65 E61.40250
G1 X106.98 Y128.15 E61.46796
G1 X107.06 Y127.60 E61.53487
G1 X106.98 Y127.04 E61.60257
G1 X106.75 Y126.54 E61.66814
G1 X106.38 Y126.12 E61.73582
G1 X105.92 Y125.82 E61.80140
G1 X105.39 Y125.67 E61.86796
G1 X104.82 Y125.67 E61.93600
G0 F3600 X104.74 Y125.38
G0 X106.39 Y118.86
G0 X106.46 Y118.57
G1 F1200 X107.45 Y118.65 E62.05542
G1 X120.84 Y118.65 E63.66210
G1 X121.76 Y118.57 E63.77298
G1 X122.74 Y118.34 E63.89341
G1 X123.67 Y117.95 E64.01393
G1 X124.52 Y117.43 E64.13460
G1 X125.29 Y116.78 E64.25505
G1 X125.94 Y116.01 E64.37550
G1 X126.46 Y115.16 E64.49616
G1 X126.85 Y114.23 E64.61668
G1 X127.08 Y113.25 E64.73723
G1 X127.16 Y112.25 E64.85762
G1 X127.08 Y111.25 E64.97812
G1 X126.85 Y110.27 E65.09868
G1 X126.46 Y109.34 E65.21919
G1 X125.94 Y108.49 E65.33986
G1 X125.29 Y107.72 E65.46031
G1 X124.52 Y107.07 E65.58076
G1 X123.67 Y106.55 E65.70142
G1 X122.74 Y106.16 E65.82194
G1 X121.76 Y105.93 E65.94250
G1 X120.77 Y105.85 E66.06191
G1 X107.38 Y105.85 E67.66859
G1 X106.46 Y105.93 E67.77947
G1 X105.48 Y106.16 E67.89991
G1 X104.55 Y106.55 E68.02043
G1 X103.70 Y107.07 E68.14109
G1 X102.93 Y107.72 E68.26154
G1 X102.28 Y108.49 E68.38199
G1 X101.76 Y109.34 E68.50265
G1 X101.37 Y110.27 E68.62317
G1 X101.14 Y111.25 E68.74373
G1 X101.06 Y112.25 E68.86422
G1 X101.14 Y113.25 E68.98460
G1 X101.37 Y114.23 E69.10515
G1 X101.76 Y115.16 E69.22567
G1 X102.28 Y116.01 E69.34633
G1 X102.93 Y116.78 E69.46678
G1 X103.70 Y117.43 E69.58723
G1 X104.55 Y117.95 E69.70790
G1 X105.48 Y118.34 E69.82841
G1 X106.46 Y118.57 E69.94897
G0 F3600 X106.39 Y118.86
G0 X104.37 Y118.31
G0 X101.96 Y116.25
G0 X100.74 Y113.31
G0 X100.99 Y110.15
G0 X102.65 Y107.44
G0 X105.36 Y105.78
G0 X105.48 Y98.92
G0 X105.39 Y98.63
G1 F1200 X105.93 Y98.47 E70.01549
G1 X106.39 Y98.17 E70.08160
G1 X106.75 Y97.75 E70.14882
G1 X106.98 Y97.25 E70.21482
G1 X107.06 Y96.70 E70.28161
G1 X106.98 Y96.14 E70.34892
G1 X106.75 Y95.64 E70.41502
G1 X106.38 Y95.22 E70.48229
G1 X105.92 Y94.92 E70.54830
G1 X105.39 Y94.77 E70.61486
G1 X104.83 Y94.77 E70.68242
G1 X104.29 Y94.93 E70.74894
G1 X103.83 Y95.22 E70.81504
G1 X103.47 Y95.65 E70.88227
G1 X103.24 Y96.15 E70.94826
G1 X103.16 Y96.70 E71.01493
G1 X103.24 Y97.25 E71.08233
G1 X103.47 Y97.76 E71.14844
G1 X103.84 Y98.18 E71.21570
G1 X104.30 Y98.47 E71.28171
G1 X104.83 Y98.63 E71.34827
G1 X105.39 Y98.63 E71.41583
G0 F3600 X105.48 Y98.92
G0 X104.13 Y98.84
G0 X102.85 Y97.37
G0 X94.76 Y89.28
G0 X94.46 Y89.25
G1 F1200 X94.53 Y88.78 E71.47325
G1 X94.70 Y88.35 E71.52829
G1 X94.99 Y87.98 E71.58513
G1 X95.37 Y87.69 E71.64234
G1 X95.80 Y87.51 E71.69765
G1 X96.27 Y87.45 E71.75526
G1 X127.26 Y87.45 E75.47370
G1 X127.73 Y87.52 E75.53123
G1 X128.16 Y87.69 E75.58638
G1 X128.53 Y87.98 E75.64303
G1 X128.82 Y88.36 E75.70031
G1 X129.00 Y88.78 E75.75563
G1 X129.06 Y89.26 E75.81324
G1 X129.06 Y99.99 E77.10048
G1 X130.37 Y101.00 E77.29934
G1 X131.46 Y102.03 E77.47862
G1 X132.45 Y103.17 E77.66028
G1 X133.31 Y104.40 E77.84051
G1 X134.04 Y105.72 E78.02165
G1 X134.64 Y107.11 E78.20280
G1 X135.09 Y108.55 E78.38365
G1 X135.39 Y110.00 E78.56134
G1 X135.54 Y111.50 E78.74191
G1 X135.54 Y113.03 E78.92647
G1 X135.38 Y114.53 E79.10733
G1 X135.07 Y116.01 E79.28803
G1 X134.61 Y117.45 E79.47023
G1 X134.01 Y118.83 E79.65027
G1 X133.28 Y120.14 E79.83004
G1 X132.41 Y121.38 E80.01255
G1 X131.42 Y122.51 E80.19263
G1 X130.32 Y123.55 E80.37380
G1 X129.06 Y124.51 E80.56434
G1 X129.06 Y135.75 E81.91266
G1 X128.99 Y136.22 E81.97046
G1 X128.82 Y136.65 E82.02557
G1 X128.53 Y137.02 E82.08231
G1 X128.15 Y137.31 E82.13943
G1 X127.72 Y137.49 E82.19486
G1 X127.25 Y137.55 E82.25236
G1 X96.27 Y137.55 E85.97020
G1 X95.79 Y137.49 E86.02785
G1 X95.36 Y137.31 E86.08353
G1 X94.99 Y137.02 E86.14011
G1 X94.70 Y136.64 E86.19711
G1 X94.52 Y136.21 E86.25291
G1 X94.46 Y135.74 E86.31039
G1 X94.46 Y89.25 E91.88907
G0 F3600 X95.03 Y89.09
;TYPE:FILL
G1 F1200 X102.61 Y96.67 E93.17680
G0 F3600 X102.68 Y96.18
G1 F1200 X95.16 Y88.65 E94.45375
G0 F3600 X95.41 Y88.34
G1 F1200 X102.82 Y95.75 E95.71229
G0 F3600 X103.00 Y95.36
G1 F1200 X95.75 Y88.11 E96.94282
G0 F3600 X96.20 Y88.00
G1 F1200 X103.26 Y95.06 E98.14018
G0 F3600 X103.54 Y94.77
G1 F1200 X96.76 Y87.99 E99.29045
G0 F3600 X97.32 Y87.99
G1 F1200 X103.88 Y94.55 E100.40320
G0 F3600 X104.27 Y94.37
G1 F1200 X97.89 Y87.99 E101.48576
G0 F3600 X98.45 Y87.99
G1 F1200 X104.70 Y94.24 E102.54625
G0 F3600 X105.26 Y94.23
G1 F1200 X99.02 Y87.99 E103.60453
G0 F3600 X99.59 Y87.99
G1 F1200 X105.97 Y94.38 E104.68861
G0 F3600 X107.43 Y95.83
G1 F1200 X116.91 Y105.31 E106.29657
G0 F3600 X117.47 Y105.31
G1 F1200 X100.15 Y87.99 E109.23587
G0 F3600 X100.72 Y87.99
G1 F1200 X118.04 Y105.31 E112.17518
G0 F3600 X118.60 Y105.31
G1 F1200 X101.28 Y87.99 E115.11448
G0 F3600 X101.85 Y87.99
G1 F1200 X119.17 Y105.31 E118.05361
G0 F3600 X119.73 Y105.31
G1 F1200 X102.42 Y87.99 E120.99274
G0 F3600 X102.98 Y87.99
G1 F1200 X120.30 Y105.31 E123.93196
G0 F3600 X120.87 Y105.32
G1 F1200 X103.55 Y87.99 E126.87219
G0 F3600 X104.11 Y87.99
G1 F1200 X121.49 Y105.36 E129.82083
G0 F3600 X122.16 Y105.47
G1 F1200 X104.68 Y87.99 E132.78686
G0 F3600 X105.24 Y87.99
G1 F1200 X122.90 Y105.65 E135.78301
G0 F3600 X123.86 Y106.04
G1 F1200 X105.81 Y87.99 E138.84688
G0 F3600 X106.38 Y87.99
G1 F1200 X134.48 Y116.09 E143.61594
G0 F3600 X134.34 Y116.52
G1 F1200 X126.96 Y109.14 E144.86803
G0 F3600 X127.36 Y110.11
G1 F1200 X134.21 Y116.95 E146.02941
G0 F3600 X134.06 Y117.37
G1 F1200 X127.54 Y110.85 E147.13564
G0 F3600 X127.64 Y111.52
G1 F1200 X133.89 Y117.77 E148.19545
G0 F3600 X133.72 Y118.16
G1 F1200 X127.69 Y112.14 E149.21776
G0 F3600 X127.67 Y112.68
G1 F1200 X133.54 Y118.55 E150.21529
G0 F3600 X133.34 Y118.92
G1 F1200 X127.62 Y113.20 E151.18592
G0 F3600 X127.53 Y113.67
G1 F1200 X133.14 Y119.28 E152.13746
G0 F3600 X132.94 Y119.64
G1 F1200 X127.42 Y114.13 E153.07287
G0 F3600 X127.29 Y114.56
G1 F1200 X132.72 Y119.99 E153.99421
G0 F3600 X132.49 Y120.32
G1 F1200 X127.13 Y114.96 E154.90408
G0 F3600 X126.96 Y115.36
G1 F1200 X132.25 Y120.66 E155.80242
G0 F3600 X132.02 Y120.99
G1 F1200 X126.75 Y115.72 E156.69694
G0 F3600 X126.53 Y116.07
G1 F1200 X131.76 Y121.30 E157.58416
G0 F3600 X131.50 Y121.60
G1 F1200 X126.31 Y116.41 E158.46519
G0 F3600 X126.05 Y116.71
G1 F1200 X131.24 Y121.90 E159.34579
G0 F3600 X130.97 Y122.20
G1 F1200 X125.79 Y117.02 E160.22452
G0 F3600 X125.50 Y117.30
G1 F1200 X130.67 Y122.47 E161.10216
G0 F3600 X130.38 Y122.75
G1 F1200 X125.20 Y117.56 E161.98208
G0 F3600 X124.89 Y117.82
G1 F1200 X130.09 Y123.02 E162.86412
G0 F3600 X129.78 Y123.28
G1 F1200 X124.55 Y118.04 E163.75202
G0 F3600 X124.20 Y118.26
G1 F1200 X129.46 Y123.52 E164.64502
G0 F3600 X129.14 Y123.77
G1 F1200 X123.84 Y118.47 E165.54479
G0 F3600 X123.44 Y118.63
G1 F1200 X128.82 Y124.01 E166.45798
G0 F3600 X128.52 Y124.28
G1 F1200 X123.04 Y118.80 E167.38797
G0 F3600 X122.60 Y118.93
G1 F1200 X128.52 Y124.84 E168.39212
G0 F3600 X128.52 Y125.41
G1 F1200 X122.15 Y119.03 E169.47382
G0 F3600 X121.67 Y119.12
G1 F1200 X128.52 Y125.97 E170.63698
G0 F3600 X128.52 Y126.54
G1 F1200 X121.14 Y119.16 E171.88890
G0 F3600 X120.60 Y119.19
G1 F1200 X128.52 Y127.11 E173.23297
G0 F3600 X128.52 Y127.67
G1 F1200 X120.03 Y119.19 E174.67292
G0 F3600 X119.47 Y119.19
G1 F1200 X128.52 Y128.24 E176.20893
G0 F3600 X128.52 Y128.80
G1 F1200 X118.90 Y119.19 E177.84099
G0 F3600 X118.34 Y119.19
G1 F1200 X128.52 Y129.37 E179.56893
G0 F3600 X128.52 Y129.93
G1 F1200 X117.77 Y119.19 E181.39275
G0 F3600 X117.21 Y119.19
G1 F1200 X128.52 Y130.50 E183.31263
G0 F3600 X128.52 Y131.07
G1 F1200 X116.64 Y119.19 E185.32857
G0 F3600 X116.08 Y119.19
G1 F1200 X128.52 Y131.63 E187.44030
G0 F3600 X128.52 Y132.20
G1 F1200 X115.51 Y119.19 E189.64800
G0 F3600 X114.94 Y119.19
G1 F1200 X128.52 Y132.76 E191.95175
G0 F3600 X128.52 Y133.33
G1 F1200 X114.38 Y119.19 E194.35148
G0 F3600 X113.81 Y119.19
G1 F1200 X128.52 Y133.89 E196.84717
G0 F3600 X128.52 Y134.46
G1 F1200 X113.25 Y119.19 E199.43883
G0 F3600 X112.68 Y119.19
G1 F1200 X128.52 Y135.02 E202.12646
G0 F3600 X128.52 Y135.59
G1 F1200 X112.12 Y119.19 E204.91014
G0 F3600 X111.55 Y119.19
G1 F1200 X128.46 Y136.10 E207.77969
G0 F3600 X128.27 Y136.47
G1 F1200 X110.99 Y119.19 E210.71305
G0 F3600 X110.42 Y119.19
G1 F1200 X127.99 Y136.76 E213.69427
G0 F3600 X127.61 Y136.95
G1 F1200 X109.85 Y119.19 E216.70790
