;Generated with Cura_SteamEngine 13.12
;FLAVOR:UltiGCode
;TIME:4987      
;MATERIAL:5070      
;MATERIAL2:0         

;Layer count: 94
;LAYER:0
M107
G0 F3600 X100.61 Y46.70 Z0.30
;TYPE:SKIRT
G11
G1 F1200 X101.38 Y45.12 E0.21022
G1 X102.32 Y43.65 E0.42025
G1 X103.42 Y42.29 E0.63001
G1 X104.66 Y41.05 E0.84003
G1 X106.03 Y39.97 E1.05012
G1 X107.52 Y39.05 E1.26020
G1 X109.10 Y38.29 E1.47013
G1 X110.75 Y37.72 E1.68006
G1 X112.46 Y37.34 E1.89020
G1 X114.20 Y37.16 E2.10021
G1 X115.95 Y37.16 E2.31009
G1 X117.69 Y37.37 E2.52008
G1 X119.39 Y37.77 E2.73018
G1 X121.04 Y38.35 E2.93996
G1 X122.62 Y39.12 E3.15018
G1 X124.09 Y40.06 E3.36020
G1 X125.45 Y41.16 E3.56997
G1 X126.69 Y42.40 E3.77998
G1 X127.77 Y43.77 E3.99007
G1 X128.69 Y45.26 E4.20016
G1 X129.45 Y46.84 E4.41008
G1 X130.02 Y48.49 E4.62002
G1 X130.40 Y50.20 E4.83016
G1 X130.59 Y51.94 E5.04016
G1 X130.58 Y53.69 E5.25005
G1 X130.37 Y55.43 E5.46004
G1 X129.97 Y57.13 E5.67014
G1 X129.39 Y58.78 E5.87992
G1 X128.62 Y60.36 E6.09014
G1 X127.68 Y61.83 E6.30016
G1 X126.58 Y63.19 E6.50993
G1 X125.34 Y64.43 E6.71994
G1 X123.97 Y65.51 E6.93003
G1 X122.48 Y66.44 E7.14011
G1 X120.90 Y67.19 E7.35004
G1 X119.25 Y67.76 E7.55998
G1 X117.54 Y68.14 E7.77012
G1 X115.80 Y68.33 E7.98012
G1 X114.05 Y68.32 E8.19000
G1 X112.31 Y68.11 E8.40000
G1 X110.61 Y67.71 E8.61010
G1 X108.96 Y67.13 E8.81987
G1 X107.38 Y66.36 E9.03009
G1 X105.91 Y65.42 E9.24012
G1 X104.55 Y64.33 E9.44989
G1 X103.31 Y63.08 E9.65990
G1 X102.23 Y61.71 E9.86999
G1 X101.31 Y60.22 E10.08007
G1 X100.55 Y58.64 E10.29000
G1 X99.98 Y56.99 E10.49994
G1 X99.60 Y55.28 E10.71008
G1 X99.42 Y53.54 E10.92008
G1 X99.42 Y51.79 E11.12996
G1 X99.63 Y50.05 E11.33995
G1 X100.03 Y48.35 E11.55005
G1 X100.61 Y46.70 E11.75983
G0 F3600 X100.98 Y46.85
G1 F1200 X101.73 Y45.32 E11.96452
G1 X102.64 Y43.88 E12.16922
G1 X103.71 Y42.55 E12.37363
G1 X104.92 Y41.35 E12.57830
G1 X106.26 Y40.30 E12.78291
G1 X107.71 Y39.40 E12.98760
G1 X109.25 Y38.66 E13.19211
G1 X110.86 Y38.11 E13.39673
G1 X112.53 Y37.74 E13.60143
G1 X114.22 Y37.56 E13.80613
G1 X115.93 Y37.56 E14.01062
G1 X117.62 Y37.76 E14.21517
G1 X119.28 Y38.15 E14.41986
G1 X120.89 Y38.72 E14.62429
G1 X122.42 Y39.47 E14.82898
G1 X123.86 Y40.38 E15.03368
G1 X125.19 Y41.45 E15.23808
G1 X126.39 Y42.66 E15.44275
G1 X127.44 Y44.00 E15.64737
G1 X128.34 Y45.45 E15.85206
G1 X129.07 Y46.99 E16.05656
G1 X129.63 Y48.60 E16.26119
G1 X130.00 Y50.27 E16.46589
G1 X130.19 Y51.96 E16.67059
G1 X130.18 Y53.67 E16.87507
G1 X129.98 Y55.36 E17.07963
G1 X129.59 Y57.02 E17.28431
G1 X129.02 Y58.63 E17.48874
G1 X128.27 Y60.16 E17.69343
G1 X127.36 Y61.60 E17.89813
G1 X126.29 Y62.93 E18.10254
G1 X125.08 Y64.13 E18.30720
G1 X123.74 Y65.18 E18.51182
G1 X122.29 Y66.08 E18.71651
G1 X120.75 Y66.81 E18.92102
G1 X119.14 Y67.37 E19.12564
G1 X117.47 Y67.74 E19.33034
G1 X115.78 Y67.92 E19.53504
G1 X114.07 Y67.92 E19.73952
G1 X112.38 Y67.72 E19.94408
G1 X110.72 Y67.33 E20.14877
G1 X109.11 Y66.76 E20.35319
G1 X107.58 Y66.01 E20.55789
G1 X106.14 Y65.10 E20.76258
G1 X104.81 Y64.03 E20.96699
G1 X103.61 Y62.82 E21.17166
G1 X102.56 Y61.48 E21.37628
G1 X101.66 Y60.03 E21.58097
G1 X100.93 Y58.49 E21.78547
G1 X100.37 Y56.88 E21.99010
G1 X100.00 Y55.21 E22.19480
G1 X99.81 Y53.52 E22.39950
G1 X99.82 Y51.81 E22.60398
G1 X100.02 Y50.12 E22.80854
G1 X100.41 Y48.46 E23.01322
G1 X100.98 Y46.85 E23.21765
G10
G0 F3600 X104.49 Y48.33
;TYPE:WALL-INNER
G11
G1 F1200 X105.05 Y47.18 E23.37109
G1 X105.74 Y46.10 E23.52459
G1 X106.54 Y45.10 E23.67770
G1 X107.44 Y44.21 E23.83069
G1 X108.45 Y43.41 E23.98422
G1 X109.54 Y42.74 E24.13820
G1 X110.69 Y42.19 E24.29182
G1 X111.89 Y41.77 E24.44426
G1 X113.15 Y41.49 E24.59821
G1 X114.42 Y41.36 E24.75197
G1 X115.69 Y41.36 E24.90485
G1 X116.97 Y41.51 E25.05891
G1 X118.21 Y41.80 E25.21158
G1 X119.41 Y42.23 E25.36507
G1 X120.56 Y42.79 E25.51851
G1 X121.64 Y43.48 E25.67201
G1 X122.64 Y44.28 E25.82512
G1 X123.53 Y45.18 E25.97811
G1 X124.33 Y46.19 E26.13164
G1 X125.00 Y47.28 E26.28562
G1 X125.55 Y48.43 E26.43924
G1 X125.97 Y49.63 E26.59168
G1 X126.25 Y50.89 E26.74563
G1 X126.38 Y52.16 E26.89939
G1 X126.38 Y53.43 E27.05227
G1 X126.23 Y54.71 E27.20633
G1 X125.94 Y55.95 E27.35900
G1 X125.51 Y57.15 E27.51249
G1 X124.95 Y58.30 E27.66593
G1 X124.26 Y59.38 E27.81943
G1 X123.46 Y60.38 E27.97254
G1 X122.56 Y61.27 E28.12553
G1 X121.55 Y62.07 E28.27906
G1 X120.46 Y62.74 E28.43304
G1 X119.31 Y63.29 E28.58666
G1 X118.11 Y63.71 E28.73910
G1 X116.85 Y63.99 E28.89305
G1 X115.58 Y64.12 E29.04681
G1 X114.31 Y64.12 E29.19969
G1 X113.03 Y63.97 E29.35375
G1 X111.79 Y63.68 E29.50642
G1 X110.59 Y63.25 E29.65991
G1 X109.44 Y62.69 E29.81335
G1 X108.36 Y62.00 E29.96685
G1 X107.36 Y61.20 E30.11996
G1 X106.47 Y60.30 E30.27295
G1 X105.67 Y59.29 E30.42648
G1 X105.00 Y58.20 E30.58046
G1 X104.45 Y57.05 E30.73408
G1 X104.03 Y55.85 E30.88652
G1 X103.75 Y54.59 E31.04047
G1 X103.62 Y53.32 E31.19423
G1 X103.62 Y52.05 E31.34711
G1 X103.77 Y50.77 E31.50117
G1 X104.06 Y49.53 E31.65384
G1 X104.49 Y48.33 E31.80733
G0 F3600 X111.23 Y50.78
G1 F1200 X110.92 Y51.54 E31.90607
G1 X110.76 Y52.36 E32.00621
G1 X110.77 Y53.21 E32.10750
G1 X110.95 Y54.02 E32.20757
G1 X111.28 Y54.79 E32.30761
G1 X111.75 Y55.48 E32.40763
G1 X112.34 Y56.06 E32.50768
G1 X113.04 Y56.51 E32.60750
G1 X113.80 Y56.82 E32.70624
G1 X114.62 Y56.98 E32.80638
G1 X115.47 Y56.97 E32.90767
G1 X116.28 Y56.79 E33.00774
G1 X117.05 Y56.47 E33.10778
G1 X117.74 Y55.99 E33.20780
G1 X118.32 Y55.40 E33.30785
G1 X118.77 Y54.70 E33.40767
G1 X119.08 Y53.94 E33.50640
G1 X119.24 Y53.12 E33.60655
G1 X119.23 Y52.27 E33.70783
G1 X119.05 Y51.46 E33.80791
G1 X118.72 Y50.69 E33.90795
G1 X118.25 Y50.00 E34.00797
G1 X117.66 Y49.42 E34.10802
G1 X116.96 Y48.97 E34.20783
G1 X116.20 Y48.66 E34.30657
G1 X115.38 Y48.50 E34.40672
G1 X114.53 Y48.51 E34.50800
G1 X113.72 Y48.69 E34.60807
G1 X112.95 Y49.02 E34.70811
G1 X112.26 Y49.49 E34.80814
G1 X111.68 Y50.08 E34.90818
G1 X111.23 Y50.78 E35.00800
G0 F3600 X111.58 Y50.97
;TYPE:WALL-OUTER
G1 F1200 X111.31 Y51.66 E35.09731
G1 X111.17 Y52.40 E35.18793
G1 X111.17 Y53.16 E35.27973
G1 X111.33 Y53.90 E35.37036
G1 X111.63 Y54.59 E35.46089
G1 X112.05 Y55.22 E35.55142
G1 X112.59 Y55.74 E35.64205
G1 X113.23 Y56.16 E35.73252
G1 X113.92 Y56.44 E35.82183
G1 X114.66 Y56.58 E35.91244
G1 X115.42 Y56.57 E36.00425
G1 X116.16 Y56.41 E36.09488
G1 X116.86 Y56.11 E36.18540
G1 X117.48 Y55.69 E36.27594
G1 X118.01 Y55.15 E36.36657
G1 X118.42 Y54.51 E36.45703
G1 X118.69 Y53.82 E36.54635
G1 X118.83 Y53.08 E36.63696
G1 X118.83 Y52.32 E36.72876
G1 X118.67 Y51.58 E36.81940
G1 X118.37 Y50.88 E36.90992
G1 X117.95 Y50.26 E37.00046
G1 X117.41 Y49.73 E37.09108
G1 X116.77 Y49.32 E37.18155
G1 X116.08 Y49.05 E37.27086
G1 X115.34 Y48.91 E37.36147
G1 X114.58 Y48.91 E37.45328
G1 X113.84 Y49.07 E37.54391
G1 X113.15 Y49.37 E37.63444
G1 X112.52 Y49.79 E37.72497
G1 X112.00 Y50.33 E37.81560
G1 X111.58 Y50.97 E37.90607
G0 F3600 X111.33 Y50.80
G0 X104.96 Y47.13
G0 X104.70 Y46.98
G1 F1200 X105.41 Y45.87 E38.06452
G1 X106.24 Y44.84 E38.22292
G1 X107.18 Y43.90 E38.38202
G1 X108.22 Y43.09 E38.54042
G1 X109.34 Y42.39 E38.69953
G1 X110.54 Y41.82 E38.85895
G1 X111.79 Y41.39 E39.01712
G1 X113.08 Y41.10 E39.17573
G1 X114.40 Y40.96 E39.33481
G1 X115.72 Y40.96 E39.49309
G1 X117.04 Y41.12 E39.65246
G1 X118.33 Y41.42 E39.81153
G1 X119.56 Y41.86 E39.96897
G1 X120.76 Y42.44 E40.12896
G1 X121.88 Y43.15 E40.28741
G1 X122.90 Y43.98 E40.44581
G1 X123.84 Y44.92 E40.60491
G1 X124.65 Y45.96 E40.76332
G1 X125.35 Y47.08 E40.92242
G1 X125.92 Y48.28 E41.08184
G1 X126.35 Y49.53 E41.24001
G1 X126.64 Y50.82 E41.39862
G1 X126.78 Y52.14 E41.55770
G1 X126.78 Y53.46 E41.71598
G1 X126.62 Y54.77 E41.87535
G1 X126.32 Y56.07 E42.03442
G1 X125.88 Y57.30 E42.19186
G1 X125.30 Y58.50 E42.35185
G1 X124.59 Y59.62 E42.51031
G1 X123.76 Y60.64 E42.66870
G1 X122.82 Y61.58 E42.82780
G1 X121.78 Y62.39 E42.98621
G1 X120.66 Y63.09 E43.14531
G1 X119.46 Y63.66 E43.30473
G1 X118.21 Y64.09 E43.46290
G1 X116.92 Y64.38 E43.62151
G1 X115.60 Y64.52 E43.78059
G1 X114.28 Y64.52 E43.93887
G1 X112.97 Y64.36 E44.09824
G1 X111.67 Y64.06 E44.25731
G1 X110.44 Y63.62 E44.41475
G1 X109.24 Y63.04 E44.57474
G1 X108.13 Y62.33 E44.73320
G1 X107.10 Y61.50 E44.89159
G1 X106.16 Y60.56 E45.05070
G1 X105.35 Y59.52 E45.20910
G1 X104.65 Y58.40 E45.36820
G1 X104.08 Y57.20 E45.52762
G1 X103.65 Y55.95 E45.68579
G1 X103.36 Y54.66 E45.84440
G1 X103.22 Y53.34 E46.00348
G1 X103.22 Y52.02 E46.16176
G1 X103.38 Y50.70 E46.32113
G1 X103.68 Y49.41 E46.48020
G1 X104.12 Y48.18 E46.63764
G1 X104.70 Y46.98 E46.79763
G0 F3600 X105.19 Y47.21
;TYPE:FILL
G1 F1200 X110.63 Y52.64 E47.71972
G0 F3600 X110.67 Y52.12
G1 F1200 X105.41 Y46.86 E48.61136
G0 F3600 X105.63 Y46.52
G1 F1200 X110.76 Y51.64 E49.48076
G0 F3600 X110.90 Y51.22
G1 F1200 X105.85 Y46.17 E50.33684
G0 F3600 X106.11 Y45.86
G1 F1200 X111.06 Y50.81 E51.17773
G0 F3600 X111.27 Y50.46
G1 F1200 X106.36 Y45.55 E52.01107
G0 F3600 X106.61 Y45.23
G1 F1200 X111.49 Y50.12 E52.83957
G0 F3600 X111.75 Y49.81
G1 F1200 X106.89 Y44.95 E53.66451
G0 F3600 X107.18 Y44.67
G1 F1200 X112.03 Y49.52 E54.48869
G0 F3600 X112.34 Y49.26
G1 F1200 X107.46 Y44.39 E55.31651
G0 F3600 X107.77 Y44.13
G1 F1200 X112.67 Y49.03 E56.14900
G0 F3600 X113.03 Y48.83
G1 F1200 X108.08 Y43.88 E56.98879
G0 F3600 X108.40 Y43.63
G1 F1200 X113.43 Y48.66 E57.84190
G0 F3600 X113.85 Y48.51
G1 F1200 X108.74 Y43.40 E58.70978
G0 F3600 X109.08 Y43.18
G1 F1200 X114.32 Y48.41 E59.59768
G0 F3600 X114.84 Y48.37
G1 F1200 X109.43 Y42.97 E60.51476
G0 F3600 X109.80 Y42.77
G1 F1200 X115.40 Y48.37 E61.46495
G0 F3600 X116.10 Y48.50
G1 F1200 X110.18 Y42.58 E62.46842
G0 F3600 X110.57 Y42.40
G1 F1200 X117.00 Y48.83 E63.55945
G0 F3600 X118.89 Y50.73
G1 F1200 X125.34 Y57.18 E64.65388
G0 F3600 X125.16 Y57.56
G1 F1200 X119.23 Y51.63 E65.65905
G0 F3600 X119.36 Y52.33
G1 F1200 X124.97 Y57.94 E66.61034
G0 F3600 X124.78 Y58.31
G1 F1200 X119.37 Y52.90 E67.52776
G0 F3600 X119.32 Y53.42
G1 F1200 X124.56 Y58.66 E68.41660
G0 F3600 X124.34 Y59.00
G1 F1200 X119.23 Y53.89 E69.28345
G0 F3600 X119.08 Y54.31
G1 F1200 X124.11 Y59.34 E70.13775
G0 F3600 X123.86 Y59.66
G1 F1200 X118.92 Y54.71 E70.97695
G0 F3600 X118.70 Y55.06
G1 F1200 X123.61 Y59.97 E71.80978
G0 F3600 X123.36 Y60.28
G1 F1200 X118.48 Y55.41 E72.63743
G0 F3600 X118.21 Y55.70
G1 F1200 X123.07 Y60.56 E73.46220
G0 F3600 X122.79 Y60.84
G1 F1200 X117.93 Y55.99 E74.28621
G0 F3600 X117.62 Y56.24
G1 F1200 X122.50 Y61.13 E75.11522
G0 F3600 X122.19 Y61.38
G1 F1200 X117.28 Y56.47 E75.94813
G0 F3600 X116.92 Y56.67
G1 F1200 X121.88 Y61.63 E76.78945
G0 F3600 X121.56 Y61.88
G1 F1200 X116.52 Y56.84 E77.64426
G0 F3600 X116.09 Y56.98
G1 F1200 X121.22 Y62.11 E78.51468
G0 F3600 X120.87 Y62.32
G1 F1200 X115.62 Y57.08 E79.40504
G0 F3600 X115.09 Y57.11
G1 F1200 X120.52 Y62.54 E80.32645
G0 F3600 X120.15 Y62.73
G1 F1200 X114.52 Y57.10 E81.28308
G0 F3600 X113.82 Y56.97
G1 F1200 X119.77 Y62.92 E82.29283
G0 F3600 X119.39 Y63.10
G1 F1200 X112.83 Y56.54 E83.40551
G0 F3600 X111.17 Y54.88
G1 F1200 X104.63 Y48.35 E84.51419
G0 F3600 X104.82 Y47.97
G1 F1200 X110.78 Y53.93 E85.52615
G0 F3600 X110.63 Y53.22
G1 F1200 X105.01 Y47.59 E86.48125
G0 F3600 X104.48 Y48.76
G1 F1200 X118.98 Y63.26 E88.94114
G0 F3600 X118.56 Y63.40
G1 F1200 X104.33 Y49.18 E91.35486
G0 F3600 X104.19 Y49.60
G1 F1200 X118.14 Y63.55 E93.72183
G0 F3600 X117.68 Y63.66
G1 F1200 X104.08 Y50.06 E96.02965
G0 F3600 X103.97 Y50.52
G1 F1200 X117.22 Y63.76 E98.27715
G0 F3600 X116.75 Y63.85
G1 F1200 X103.89 Y50.99 E100.45957
G0 F3600 X103.83 Y51.50
G1 F1200 X116.24 Y63.91 E102.56561
G0 F3600 X115.73 Y63.97
G1 F1200 X103.77 Y52.01 E104.59529
G0 F3600 X103.76 Y52.56
G1 F1200 X115.18 Y63.98 E106.53282
G0 F3600 X114.61 Y63.98
G1 F1200 X103.76 Y53.13 E108.37438
G0 F3600 X103.80 Y53.74
G1 F1200 X114.00 Y63.94 E110.10572
G0 F3600 X113.36 Y63.86
G1 F1200 X103.87 Y54.37 E111.71656
G0 F3600 X104.00 Y55.07
G1 F1200 X112.67 Y63.74 E113.18766
G0 F3600 X111.93 Y63.57
G1 F1200 X104.17 Y55.80 E114.50610
G0 F3600 X104.46 Y56.66
G1 F1200 X111.08 Y63.27 E115.62879
G0 F3600 X110.08 Y62.85
G1 F1200 X104.89 Y57.66 E116.51007
G0 F3600 X105.64 Y58.97
G1 F1200 X108.77 Y62.10 E117.04142
G0 F3600 X125.50 Y56.77
G1 F1200 X110.97 Y42.24 E119.50690
G0 F3600 X111.39 Y42.09
G1 F1200 X125.65 Y56.35 E121.92614
G0 F3600 X125.80 Y55.93
G1 F1200 X111.81 Y41.95 E124.29930
G0 F3600 X112.26 Y41.83
G1 F1200 X125.90 Y55.48 E126.61434
G0 F3600 X126.01 Y55.02
G1 F1200 X112.72 Y41.73 E128.86905
G0 F3600 X113.19 Y41.63
G1 F1200 X126.10 Y54.54 E131.06071
G0 F3600 X126.16 Y54.04
G1 F1200 X113.70 Y41.58 E133.17601
G0 F3600 X114.21 Y41.52
G1 F1200 X126.22 Y53.53 E135.21468
G0 F3600 X126.24 Y52.98
G1 F1200 X114.75 Y41.50 E137.16375
G0 F3600 X115.32 Y41.50
G1 F1200 X126.24 Y52.42 E139.01660
G0 F3600 X126.21 Y51.82
G1 F1200 X115.92 Y41.53 E140.76236
G0 F3600 X116.56 Y41.61
G1 F1200 X126.14 Y51.18 E142.38772
G0 F3600 X126.02 Y50.50
G1 F1200 X117.24 Y41.72 E143.87722
G0 F3600 X117.98 Y41.89
G1 F1200 X125.85 Y49.77 E145.21408
G0 F3600 X125.57 Y48.92
G1 F1200 X118.82 Y42.17 E146.36078
G0 F3600 X119.78 Y42.57
G1 F1200 X125.17 Y47.95 E147.27498
G0 F3600 X124.47 Y46.69
G1 F1200 X121.04 Y43.26 E147.85707
;LAYER:1
M106 S5
G0 F9000 X121.64 Y43.48 Z0.40
;TYPE:WALL-INNER
G1 F1620 X122.64 Y44.28 E147.90811
G1 X123.53 Y45.18 E147.95911
G1 X124.33 Y46.19 E148.01029
G1 X125.00 Y47.28 E148.06161
G1 X125.55 Y48.43 E148.11282
G1 X125.97 Y49.63 E148.16363
G1 X126.25 Y50.89 E148.21495
G1 X126.38 Y52.16 E148.26620
G1 X126.38 Y53.43 E148.31716
G1 X126.23 Y54.71 E148.36852
G1 X125.94 Y55.95 E148.41941
G1 X125.51 Y57.15 E148.47057
G1 X124.95 Y58.30 E148.52172
G1 X124.26 Y59.38 E148.57288
G1 X123.46 Y60.38 E148.62392
G1 X122.56 Y61.27 E148.67492
G1 X121.55 Y62.07 E148.72609
G1 X120.46 Y62.74 E148.77742
G1 X119.31 Y63.29 E148.82862
G1 X118.11 Y63.71 E148.87944
G1 X116.85 Y63.99 E148.93076
G1 X115.58 Y64.12 E148.98201
G1 X114.31 Y64.12 E149.03297
G1 X113.03 Y63.97 E149.08432
G1 X111.79 Y63.68 E149.13521
G1 X110.59 Y63.25 E149.18638
G1 X109.44 Y62.69 E149.23752
G1 X108.36 Y62.00 E149.28869
G1 X107.36 Y61.20 E149.33973
G1 X106.47 Y60.30 E149.39072
G1 X105.67 Y59.29 E149.44190
G1 X105.00 Y58.20 E149.49322
G1 X104.45 Y57.05 E149.54443
G1 X104.03 Y55.85 E149.59525
G1 X103.75 Y54.59 E149.64656
G1 X103.62 Y53.32 E149.69782
G1 X103.62 Y52.05 E149.74878
G1 X103.77 Y50.77 E149.80013
G1 X104.06 Y49.53 E149.85102
G1 X104.49 Y48.33 E149.90218
G1 X105.05 Y47.18 E149.95333
G1 X105.74 Y46.10 E150.00450
G1 X106.54 Y45.10 E150.05553
G1 X107.44 Y44.21 E150.10653
G1 X108.45 Y43.41 E150.15771
G1 X109.54 Y42.74 E150.20903
G1 X110.69 Y42.19 E150.26024
G1 X111.89 Y41.77 E150.31105
G1 X113.15 Y41.49 E150.36237
G1 X114.42 Y41.36 E150.41362
G1 X115.69 Y41.36 E150.46458
G1 X116.97 Y41.51 E150.51594
G1 X118.21 Y41.80 E150.56683
G1 X119.41 Y42.23 E150.61799
G1 X120.56 Y42.79 E150.66914
G1 X121.64 Y43.48 E150.72030
G0 F9000 X117.67 Y49.43
G1 F1620 X116.95 Y48.96 E150.75434
G1 X116.20 Y48.66 E150.78691
G1 X115.38 Y48.50 E150.82029
G1 X114.53 Y48.52 E150.85438
G1 X113.71 Y48.69 E150.88771
G1 X112.96 Y49.01 E150.92029
G1 X112.26 Y49.49 E150.95441
G1 X111.69 Y50.07 E150.98702
G1 X111.22 Y50.79 E151.02106
G1 X110.92 Y51.54 E151.05363
G1 X110.76 Y52.36 E151.08701
G1 X110.78 Y53.22 E151.12110
G1 X110.95 Y54.03 E151.15443
G1 X111.27 Y54.78 E151.18701
G1 X111.75 Y55.48 E151.22113
G1 X112.33 Y56.05 E151.25374
G1 X113.05 Y56.52 E151.28778
G1 X113.80 Y56.82 E151.32035
G1 X114.62 Y56.98 E151.35373
G1 X115.47 Y56.97 E151.38781
G1 X116.29 Y56.79 E151.42115
G1 X117.04 Y56.47 E151.45373
G1 X117.74 Y55.99 E151.48785
G1 X118.31 Y55.41 E151.52046
