;Generated with Cura_SteamEngine 13.12
;FLAVOR:UltiGCode
;TIME:3841      
;MATERIAL:5700      
;MATERIAL2:0         

;Layer count: 119
;LAYER:0
M107
G0 F3600 X42.75 Y59.19 Z0.30
;TYPE:SKIRT
G11
G1 F1200 X44.02 Y58.33 E0.18452
G1 X45.49 Y57.59 E0.38201
G1 X47.04 Y57.04 E0.57961
G1 X48.65 Y56.68 E0.77706
G1 X50.29 Y56.52 E0.97473
G1 X51.93 Y56.58 E1.17235
G1 X53.56 Y56.83 E1.36986
G1 X55.15 Y57.29 E1.56902
G1 X56.76 Y57.99 E1.77923
G1 X58.17 Y58.84 E1.97700
G1 X59.46 Y59.84 E2.17283
G1 X60.55 Y60.92 E2.35739
G1 X61.57 Y62.22 E2.55487
G1 X62.42 Y63.63 E2.75254
G1 X63.09 Y65.13 E2.94992
G1 X63.56 Y66.70 E3.14623
G1 X63.90 Y68.63 E3.38137
G1 X63.99 Y68.87 E3.41250
G1 X64.19 Y69.24 E3.46331
G1 X75.18 Y85.91 E5.85931
G1 X75.44 Y86.24 E5.90909
G1 X75.62 Y86.40 E5.93829
G1 X75.86 Y86.56 E5.97274
G1 X76.10 Y86.68 E6.00549
G1 X78.01 Y87.20 E6.24254
G1 X79.38 Y87.73 E6.41830
G1 X80.76 Y88.47 E6.60695
G1 X82.05 Y89.37 E6.79551
G1 X83.22 Y90.42 E6.98426
G1 X84.26 Y91.60 E7.17309
G1 X85.15 Y92.89 E7.36162
G1 X85.89 Y94.28 E7.55040
G1 X86.45 Y95.77 E7.74089
G1 X86.84 Y97.38 E7.94028
G1 X87.03 Y98.84 E8.11675
G1 X87.04 Y100.41 E8.30528
G1 X86.87 Y101.96 E8.49280
G1 X86.45 Y103.79 E8.71704
G1 X86.44 Y104.04 E8.74758
G1 X86.46 Y104.31 E8.78035
G1 X86.53 Y104.58 E8.81385
G1 X86.61 Y104.79 E8.84097
G1 X87.95 Y106.88 E9.13810
G1 X88.85 Y108.50 E9.36027
G1 X89.69 Y110.32 E9.60135
G1 X90.39 Y112.21 E9.84344
G1 X90.97 Y114.28 E10.10119
G1 X91.37 Y116.24 E10.34112
G1 X91.61 Y118.09 E10.56522
G1 X91.72 Y120.11 E10.80736
G1 X91.66 Y122.25 E11.06510
G1 X91.45 Y124.22 E11.30254
G1 X91.10 Y126.40 E11.56806
G1 X91.10 Y126.64 E11.59651
G1 X91.16 Y126.93 E11.63129
G1 X91.30 Y127.35 E11.68553
G1 X92.32 Y129.91 E12.01588
G1 X93.18 Y132.51 E12.34481
G1 X93.87 Y135.16 E12.67365
G1 X94.40 Y137.85 E13.00230
G1 X94.77 Y140.56 E13.33064
G1 X94.96 Y143.10 E13.63641
G1 X95.00 Y145.85 E13.96561
G1 X94.85 Y148.77 E14.31681
G1 X94.57 Y151.31 E14.62344
G1 X94.07 Y154.20 E14.97512
G1 X93.43 Y156.86 E15.30364
G1 X92.70 Y159.26 E15.60494
G1 X92.61 Y159.54 E15.64008
G1 X91.62 Y162.14 E15.97352
G1 X90.47 Y164.73 E16.31369
G1 X89.55 Y165.92 E16.49438
G1 X88.50 Y166.88 E16.66513
G1 X87.23 Y167.66 E16.84385
G1 X85.93 Y168.16 E17.01090
G1 X84.64 Y168.43 E17.16938
G1 X83.22 Y168.47 E17.33974
G1 X81.77 Y168.24 E17.51653
G1 X80.50 Y167.81 E17.67633
G1 X79.27 Y167.13 E17.84603
G1 X78.11 Y166.19 E18.02434
G1 X77.20 Y165.11 E18.19403
G1 X76.50 Y163.91 E18.36149
G1 X76.08 Y162.79 E18.50524
G1 X75.99 Y162.45 E18.54640
G1 X75.78 Y161.29 E18.68885
G1 X75.77 Y160.07 E18.83478
G1 X75.79 Y159.73 E18.87540
G1 X76.03 Y158.42 E19.03529
G1 X76.52 Y157.10 E19.20418
G1 X77.23 Y155.89 E19.37298
G1 X78.14 Y154.82 E19.54149
G1 X79.23 Y153.94 E19.70947
G1 X80.72 Y153.11 E19.91392
G1 X80.95 Y152.92 E19.95071
G1 X81.15 Y152.69 E19.98666
G1 X81.31 Y152.44 E20.02303
G1 X81.45 Y152.09 E20.06824
G1 X81.92 Y150.30 E20.29033
G1 X82.25 Y148.54 E20.50411
G1 X82.43 Y146.90 E20.70217
G1 X82.50 Y145.12 E20.91616
G1 X82.42 Y143.21 E21.14533
G1 X82.21 Y141.42 E21.36163
G1 X81.90 Y139.82 E21.55768
G1 X81.46 Y138.16 E21.76341
G1 X81.31 Y137.81 E21.80916
G1 X81.15 Y137.55 E21.84553
G1 X80.95 Y137.33 E21.88149
G1 X80.72 Y137.14 E21.91827
G1 X79.19 Y136.28 E22.12811
G1 X78.03 Y135.31 E22.31035
G1 X77.12 Y134.20 E22.48242
G1 X76.52 Y133.13 E22.62850
G1 X76.38 Y132.82 E22.67001
G1 X75.98 Y131.65 E22.81873
G1 X75.75 Y130.16 E22.99983
G1 X75.81 Y128.71 E23.17348
G1 X76.12 Y127.30 E23.34628
G1 X76.68 Y125.97 E23.51983
G1 X77.60 Y124.58 E23.71999
G1 X77.72 Y124.35 E23.75101
G1 X77.80 Y124.14 E23.77823
G1 X78.07 Y123.00 E23.91886
G1 X78.25 Y121.81 E24.06357
G1 X78.31 Y120.63 E24.20490
G1 X78.26 Y119.33 E24.36129
G1 X78.10 Y118.13 E24.50659
G1 X77.86 Y117.08 E24.63597
G1 X77.45 Y115.83 E24.79323
G1 X77.02 Y114.82 E24.92538
G1 X76.48 Y113.82 E25.06106
G1 X76.25 Y113.51 E25.10822
G1 X76.09 Y113.34 E25.13639
G1 X75.87 Y113.18 E25.16805
G1 X75.57 Y113.02 E25.20954
G1 X75.34 Y112.95 E25.23773
G1 X75.07 Y112.90 E25.27145
G1 X74.47 Y112.90 E25.34249
G1 X73.16 Y112.91 E25.50053
G1 X71.52 Y112.72 E25.69779
G1 X69.84 Y112.30 E25.90591
G1 X68.34 Y111.72 E26.09957
G1 X66.99 Y111.01 E26.28217
G1 X65.65 Y110.08 E26.47775
G1 X64.44 Y108.99 E26.67302
G1 X63.38 Y107.76 E26.86841
G1 X62.47 Y106.41 E27.06378
G1 X61.73 Y104.96 E27.25923
G1 X61.18 Y103.43 E27.45437
G1 X60.82 Y101.84 E27.64968
G1 X60.66 Y100.21 E27.84684
G1 X60.71 Y98.48 E28.05347
G1 X60.94 Y96.97 E28.23777
G1 X61.41 Y95.32 E28.44363
G1 X61.93 Y94.06 E28.60616
G1 X62.10 Y93.62 E28.66379
G1 X62.16 Y93.31 E28.70111
G1 X62.17 Y93.01 E28.73784
G1 X62.12 Y92.70 E28.77535
G1 X62.03 Y92.41 E28.81231
G1 X61.81 Y92.02 E28.86552
G1 X56.11 Y83.35 E30.11035
G1 X55.83 Y83.00 E30.16476
G1 X55.58 Y82.78 E30.20353
G1 X55.32 Y82.62 E30.24084
G1 X55.01 Y82.51 E30.28004
G1 X54.71 Y82.45 E30.31718
G1 X54.41 Y82.45 E30.35282
G1 X52.44 Y82.81 E30.59364
G1 X50.81 Y82.93 E30.78889
G1 X49.17 Y82.84 E30.98657
G1 X47.55 Y82.55 E31.18391
G1 X45.97 Y82.05 E31.38317
G1 X44.39 Y81.31 E31.59195
G1 X43.08 Y80.51 E31.77655
G1 X41.79 Y79.47 E31.97576
G1 X40.59 Y78.20 E32.18457
G1 X39.66 Y76.96 E32.37100
G1 X38.81 Y75.45 E32.57929
G1 X38.21 Y74.01 E32.76557
G1 X37.76 Y72.33 E32.97436
G1 X37.54 Y70.81 E33.15894
G1 X37.51 Y69.16 E33.35686
G1 X37.68 Y67.51 E33.55583
G1 X38.09 Y65.82 E33.76449
G1 X38.63 Y64.38 E33.94917
G1 X39.39 Y62.91 E34.14839
G1 X40.40 Y61.47 E34.35890
G1 X41.51 Y60.25 E34.55641
G1 X42.75 Y59.19 E34.75223
G10
G0 F3600 X45.06 Y62.22
;TYPE:WALL-INNER
G11
G1 F1200 X45.95 Y61.62 E34.88183
G1 X46.99 Y61.09 E35.02174
G1 X48.09 Y60.69 E35.16241
G1 X49.25 Y60.44 E35.30390
G1 X50.40 Y60.33 E35.44312
G1 X51.58 Y60.37 E35.58443
G1 X52.73 Y60.55 E35.72496
G1 X53.86 Y60.87 E35.86597
G1 X55.01 Y61.38 E36.01611
G1 X56.02 Y61.98 E36.15743
G1 X56.94 Y62.70 E36.29735
G1 X57.72 Y63.47 E36.42854
G1 X58.44 Y64.38 E36.56816
G1 X59.04 Y65.38 E36.70833
G1 X59.52 Y66.46 E36.85048
G1 X59.85 Y67.58 E36.98973
G1 X60.21 Y69.61 E37.23709
G1 X60.51 Y70.45 E37.34428
G1 X60.93 Y71.20 E37.44826
G1 X72.11 Y88.15 E39.88427
G1 X72.64 Y88.83 E39.98809
G1 X73.25 Y89.39 E40.08744
G1 X73.99 Y89.89 E40.19427
G1 X74.80 Y90.26 E40.30117
G1 X76.82 Y90.81 E40.55210
G1 X77.78 Y91.19 E40.67638
G1 X78.77 Y91.71 E40.81033
G1 X79.69 Y92.35 E40.94469
G1 X80.52 Y93.10 E41.07973
G1 X81.26 Y93.94 E41.21398
G1 X81.89 Y94.86 E41.34729
G1 X82.42 Y95.85 E41.48212
G1 X82.82 Y96.90 E41.61685
G1 X83.10 Y98.07 E41.76118
G1 X83.23 Y99.09 E41.88431
G1 X83.24 Y100.22 E42.01968
G1 X83.11 Y101.33 E42.15372
G1 X82.68 Y103.24 E42.38978
G1 X82.62 Y104.10 E42.49222
G1 X82.70 Y104.94 E42.59427
G1 X82.90 Y105.77 E42.69633
G1 X83.23 Y106.56 E42.79925
G1 X84.68 Y108.82 E43.12138
G1 X85.45 Y110.22 E43.31293
G1 X86.18 Y111.79 E43.52040
G1 X86.78 Y113.39 E43.72605
G1 X87.28 Y115.17 E43.94737
G1 X87.62 Y116.86 E44.15437
G1 X87.82 Y118.44 E44.34543
G1 X87.91 Y120.15 E44.55104
G1 X87.86 Y122.00 E44.77360
G1 X87.68 Y123.73 E44.98161
G1 X87.29 Y126.15 E45.27595
G1 X87.31 Y127.04 E45.38302
G1 X87.47 Y127.90 E45.48860
G1 X88.75 Y131.20 E45.91322
G1 X89.53 Y133.59 E46.21502
G1 X90.16 Y136.00 E46.51309
G1 X90.65 Y138.47 E46.81593
G1 X90.99 Y140.98 E47.11910
G1 X91.16 Y143.27 E47.39502
G1 X91.20 Y145.79 E47.69710
G1 X91.06 Y148.47 E48.01958
G1 X90.81 Y150.77 E48.29750
G1 X90.34 Y153.43 E48.62152
G1 X89.76 Y155.86 E48.92128
G1 X89.09 Y158.09 E49.20014
G1 X89.03 Y158.26 E49.22234
G1 X88.11 Y160.69 E49.53444
G1 X87.19 Y162.77 E49.80740
G1 X86.75 Y163.34 E49.89294
G1 X86.21 Y163.82 E49.98010
G1 X85.54 Y164.24 E50.07529
G1 X84.85 Y164.50 E50.16332
G1 X84.20 Y164.64 E50.24371
G1 X83.46 Y164.66 E50.33171
G1 X82.68 Y164.54 E50.42708
G1 X82.04 Y164.32 E50.50757
G1 X81.40 Y163.97 E50.59532
G1 X80.79 Y163.47 E50.69033
G1 X80.32 Y162.91 E50.77777
G1 X79.94 Y162.27 E50.86666
G1 X79.70 Y161.61 E50.95132
G1 X79.58 Y160.92 E51.03535
G1 X79.57 Y160.17 E51.12584
G1 X79.70 Y159.43 E51.21598
G1 X79.96 Y158.75 E51.30365
G1 X80.33 Y158.11 E51.39188
G1 X80.81 Y157.55 E51.48099
G1 X81.37 Y157.09 E51.56728
G1 X82.84 Y156.28 E51.76920
G1 X83.58 Y155.68 E51.88333
G1 X84.21 Y154.97 E51.99741
G1 X84.72 Y154.16 E52.11150
G1 X85.07 Y153.29 E52.22417
G1 X85.64 Y151.13 E52.49253
G1 X86.01 Y149.10 E52.74046
G1 X86.23 Y147.19 E52.97053
G1 X86.30 Y145.12 E53.21910
G1 X86.21 Y142.90 E53.48550
G1 X85.96 Y140.85 E53.73371
G1 X85.61 Y138.97 E53.96358
G1 X85.07 Y136.95 E54.21357
G1 X84.72 Y136.09 E54.32608
G1 X84.21 Y135.28 E54.44016
G1 X83.58 Y134.57 E54.55425
G1 X82.84 Y133.97 E54.66838
G1 X81.36 Y133.14 E54.87187
G1 X80.74 Y132.62 E54.96887
G1 X80.27 Y132.05 E55.05814
G1 X79.91 Y131.40 E55.14662
G1 X79.68 Y130.74 E55.23124
G1 X79.56 Y129.94 E55.32750
G1 X79.59 Y129.20 E55.41721
G1 X79.75 Y128.46 E55.50779
G1 X80.04 Y127.78 E55.59696
G1 X80.89 Y126.50 E55.78084
G1 X81.22 Y125.86 E55.86687
G1 X81.44 Y125.24 E55.94666
G1 X81.81 Y123.73 E56.13302
G1 X82.03 Y122.19 E56.31873
G1 X82.12 Y120.65 E56.50452
G1 X82.05 Y118.99 E56.70355
G1 X81.84 Y117.46 E56.88894
G1 X81.53 Y116.06 E57.06123
G1 X81.01 Y114.49 E57.26004
G1 X80.45 Y113.17 E57.43225
G1 X79.71 Y111.79 E57.61931
G1 X79.16 Y111.04 E57.73063
G1 X78.59 Y110.46 E57.82889
G1 X77.88 Y109.94 E57.93486
G1 X77.04 Y109.51 E58.04734
G1 X76.26 Y109.25 E58.14555
G1 X75.39 Y109.11 E58.25129
G1 X74.46 Y109.10 E58.36301
G1 X73.36 Y109.11 E58.49598
G1 X72.21 Y108.98 E58.63465
G1 X71.00 Y108.67 E58.78439
G1 X69.92 Y108.25 E58.92382
G1 X68.97 Y107.75 E59.05211
G1 X68.02 Y107.10 E59.19046
G1 X67.16 Y106.32 E59.33025
G1 X66.39 Y105.44 E59.46940
G1 X65.75 Y104.48 E59.60876
G1 X65.22 Y103.45 E59.74754
G1 X64.83 Y102.36 E59.88594
G1 X64.58 Y101.23 E60.02549
G1 X64.46 Y100.08 E60.16381
G1 X64.50 Y98.82 E60.31485
G1 X64.66 Y97.78 E60.44178
G1 X65.00 Y96.57 E60.59257
G1 X65.77 Y94.68 E60.83684
G1 X65.95 Y93.73 E60.95307
G1 X65.98 Y92.76 E61.06927
G1 X65.83 Y91.81 E61.18555
G1 X65.53 Y90.89 E61.30182
G1 X65.08 Y90.06 E61.41496
G1 X59.19 Y81.12 E62.69886
G1 X58.59 Y80.37 E62.81500
G1 X57.84 Y79.71 E62.93455
G1 X56.99 Y79.19 E63.05395
G1 X56.06 Y78.84 E63.17360
G1 X55.08 Y78.65 E63.29302
G1 X54.08 Y78.64 E63.41315
G1 X51.96 Y79.04 E63.67190
G1 X50.78 Y79.12 E63.81374
G1 X49.61 Y79.06 E63.95399
G1 X48.47 Y78.85 E64.09361
G1 X47.34 Y78.50 E64.23457
G1 X46.20 Y77.97 E64.38634
G1 X45.28 Y77.40 E64.51609
G1 X44.37 Y76.66 E64.65674
G1 X43.50 Y75.75 E64.80783
G1 X42.85 Y74.89 E64.93709
G1 X42.23 Y73.78 E65.08918
G1 X41.82 Y72.79 E65.21839
G1 X41.49 Y71.57 E65.37016
G1 X41.34 Y70.50 E65.50006
G1 X41.31 Y69.33 E65.64036
G1 X41.44 Y68.16 E65.78118
G1 X41.73 Y66.94 E65.93168
G1 X42.11 Y65.92 E66.06248
G1 X42.65 Y64.88 E66.20267
G1 X43.37 Y63.85 E66.35359
G1 X44.16 Y62.99 E66.49392
G1 X45.06 Y62.22 E66.63570
G0 F3600 X49.77 Y68.11
G1 F1200 X49.28 Y68.53 E66.71351
G1 X48.96 Y69.09 E66.79018
G1 X48.84 Y69.72 E66.86783
G1 X48.96 Y70.36 E66.94600
G1 X49.28 Y70.92 E67.02278
G1 X49.77 Y71.33 E67.10012
G1 X50.38 Y71.56 E67.17779
G1 X51.03 Y71.55 E67.25615
G1 X51.63 Y71.33 E67.33288
G1 X52.13 Y70.91 E67.41080
G1 X52.45 Y70.36 E67.48773
G1 X52.56 Y69.72 E67.56533
G1 X52.45 Y69.08 E67.64322
G1 X52.13 Y68.53 E67.72015
G1 X51.63 Y68.11 E67.79750
G1 X51.03 Y67.89 E67.87494
G1 X50.37 Y67.89 E67.95330
G1 X49.77 Y68.11 E68.03037
G0 F3600 X51.02 Y67.89
G0 X52.13 Y68.53
G0 X52.56 Y69.72
G0 X72.92 Y98.11
G1 F1200 X72.43 Y98.53 E68.10818
G1 X72.11 Y99.09 E68.18485
G1 X71.99 Y99.72 E68.26250
G1 X72.11 Y100.36 E68.34067
G1 X72.43 Y100.92 E68.41745
G1 X72.92 Y101.33 E68.49479
G1 X73.53 Y101.56 E68.57246
G1 X74.18 Y101.55 E68.65082
G1 X74.78 Y101.33 E68.72755
G1 X75.28 Y100.91 E68.80547
G1 X75.60 Y100.36 E68.88240
G1 X75.71 Y99.72 E68.96000
G1 X75.60 Y99.08 E69.03789
G1 X75.28 Y98.53 E69.11482
G1 X74.78 Y98.11 E69.19217
G1 X74.18 Y97.89 E69.26962
G1 X73.52 Y97.89 E69.34798
G1 X72.92 Y98.11 E69.42504
G0 F3600 X72.11 Y99.09
G0 X72.11 Y100.36
G0 X72.92 Y101.33
G0 X80.45 Y113.17
G0 X81.84 Y117.46
G0 X82.03 Y122.19
G0 X82.77 Y127.67
G1 F1200 X82.23 Y128.02 E69.50207
G1 X81.80 Y128.51 E69.57975
G1 X81.54 Y129.09 E69.65627
G1 X81.45 Y129.72 E69.73323
G1 X81.54 Y130.36 E69.81072
G1 X81.81 Y130.94 E69.88719
G1 X82.23 Y131.43 E69.96424
G1 X82.77 Y131.77 E70.04117
G1 X83.38 Y131.96 E70.11836
G1 X84.03 Y131.96 E70.19600
G1 X84.64 Y131.77 E70.27236
G1 X85.18 Y131.43 E70.34938
G1 X85.60 Y130.94 E70.42706
G1 X85.87 Y130.36 E70.50358
G1 X85.96 Y129.72 E70.58054
G1 X85.86 Y129.08 E70.65803
G1 X85.60 Y128.50 E70.73450
G1 X85.18 Y128.02 E70.81156
G1 X84.64 Y127.67 E70.88848
G1 X84.02 Y127.49 E70.96568
G1 X83.38 Y127.49 E71.04332
G1 X82.77 Y127.67 E71.11967
G0 F3600 X81.54 Y129.09
G0 X81.81 Y130.94
G0 X85.07 Y136.96
G0 X86.21 Y142.90
G0 X86.01 Y149.10
G0 X84.71 Y154.16
G0 X83.38 Y158.29
G1 F1200 X82.77 Y158.47 E71.19603
G1 X82.23 Y158.82 E71.27305
G1 X81.80 Y159.31 E71.35073
G1 X81.54 Y159.89 E71.42725
G1 X81.45 Y160.52 E71.50421
G1 X81.54 Y161.16 E71.58180
G1 X81.81 Y161.74 E71.65832
G1 X82.23 Y162.23 E71.73538
G1 X82.77 Y162.57 E71.81230
G1 X83.38 Y162.76 E71.88950
G1 X84.03 Y162.76 E71.96714
G1 X84.64 Y162.57 E72.04349
G1 X85.18 Y162.23 E72.12052
G1 X85.60 Y161.74 E72.19820
G1 X85.87 Y161.16 E72.27472
G1 X85.96 Y160.52 E72.35180
G1 X85.86 Y159.88 E72.42929
G1 X85.60 Y159.30 E72.50576
G1 X85.18 Y158.82 E72.58281
G1 X84.64 Y158.47 E72.65974
G1 X84.02 Y158.29 E72.73693
G1 X83.38 Y158.29 E72.81457
G0 F3600 X83.44 Y158.69
;TYPE:WALL-OUTER
G1 F1200 X82.93 Y158.84 E72.87726
G1 X82.49 Y159.12 E72.94047
G1 X82.14 Y159.53 E73.00437
G1 X81.93 Y160.00 E73.06703
G1 X81.85 Y160.52 E73.13018
G1 X81.93 Y161.05 E73.19407
G1 X82.14 Y161.52 E73.25674
G1 X82.49 Y161.92 E73.32003
G1 X82.93 Y162.21 E73.38324
G1 X83.44 Y162.36 E73.44653
G1 X83.97 Y162.35 E73.51025
G1 X84.47 Y162.21 E73.57294
G1 X84.92 Y161.92 E73.63615
G1 X85.26 Y161.52 E73.70005
G1 X85.48 Y161.04 E73.76271
G1 X85.55 Y160.52 E73.82598
G1 X85.48 Y160.00 E73.88976
G1 X85.26 Y159.52 E73.95242
G1 X84.92 Y159.12 E74.01571
G1 X84.47 Y158.84 E74.07892
G1 X83.97 Y158.69 E74.14222
G1 X83.44 Y158.69 E74.20594
G0 F3600 X83.35 Y158.40
G0 X82.80 Y156.18
G0 X82.62 Y155.94
G1 F1200 X83.31 Y155.39 E74.31195
G1 X83.89 Y154.73 E74.41779
G1 X84.36 Y153.98 E74.52378
G1 X84.69 Y153.16 E74.62930
G1 X85.25 Y151.04 E74.89271
G1 X85.61 Y149.04 E75.13723
G1 X85.83 Y147.16 E75.36380
G1 X85.90 Y145.12 E75.60865
G1 X85.81 Y142.93 E75.87133
G1 X85.57 Y140.91 E76.11603
G1 X85.22 Y139.06 E76.34249
G1 X84.69 Y137.08 E76.58775
G1 X84.36 Y136.27 E76.69316
G1 X83.89 Y135.52 E76.79915
G1 X83.31 Y134.86 E76.90499
G1 X82.62 Y134.30 E77.01100
G1 X81.13 Y133.47 E77.21541
G1 X80.46 Y132.91 E77.32058
G1 X79.94 Y132.27 E77.41967
G1 X79.56 Y131.60 E77.51159
G1 X79.54 Y131.56 E77.51712
G1 X79.29 Y130.83 E77.60923
G1 X79.16 Y129.96 E77.71508
G1 X79.19 Y129.14 E77.81331
G1 X79.37 Y128.34 E77.91215
G1 X79.69 Y127.58 E78.01041
G1 X80.55 Y126.30 E78.19592
G1 X80.85 Y125.70 E78.27626
G1 X81.06 Y125.12 E78.35059
G1 X81.42 Y123.65 E78.53212
G1 X81.64 Y122.16 E78.71333
G1 X81.72 Y120.65 E78.89456
G1 X81.65 Y119.03 E79.08914
G1 X81.45 Y117.53 E79.27017
G1 X81.14 Y116.17 E79.43804
G1 X80.63 Y114.63 E79.63256
G1 X80.08 Y113.34 E79.80046
G1 X79.37 Y112.01 E79.98215
G1 X78.85 Y111.30 E80.08668
G1 X78.32 Y110.76 E80.17756
G1 X77.67 Y110.28 E80.27579
G1 X76.89 Y109.88 E80.38071
G1 X76.17 Y109.64 E80.47160
G1 X75.36 Y109.51 E80.56978
G1 X74.47 Y109.50 E80.67718
G1 X73.34 Y109.51 E80.81243
G1 X72.13 Y109.37 E80.95787
G1 X70.88 Y109.05 E81.11367
G1 X69.75 Y108.62 E81.25838
G1 X68.76 Y108.10 E81.39273
G1 X67.77 Y107.41 E81.53694
G1 X66.87 Y106.60 E81.68294
G1 X66.08 Y105.69 E81.82721
