;Generated with Cura_SteamEngine 13.12
;FLAVOR:UltiGCode
;TIME:2759      
;MATERIAL:4261      
;MATERIAL2:0         

;Layer count: 72
;LAYER:0
M107
G0 F3600 X99.05 Y85.55 Z0.30
;TYPE:SKIRT
G11
G1 F1200 X100.14 Y84.71 E0.16544
G1 X101.39 Y84.20 E0.32735
G1 X102.53 Y84.05 E0.46522
G1 X133.97 Y84.05 E4.23778
G1 X135.11 Y84.21 E4.37573
G1 X136.35 Y84.72 E4.53710
G1 X137.44 Y85.56 E4.70220
G1 X138.28 Y86.66 E4.86766
G1 X138.79 Y87.90 E5.02925
G1 X138.94 Y89.04 E5.16734
G1 X138.94 Y127.97 E9.83858
G1 X138.78 Y129.12 E9.97751
G1 X138.27 Y130.36 E10.13920
G1 X137.43 Y131.45 E10.30438
G1 X136.34 Y132.29 E10.46967
G1 X135.09 Y132.80 E10.63088
G1 X133.95 Y132.95 E10.76901
G1 X124.44 Y132.95 E11.91045
G1 X124.44 Y140.95 E12.87045
G1 X102.51 Y140.95 E15.50229
G1 X101.37 Y140.79 E15.64006
G1 X100.13 Y140.28 E15.80122
G1 X99.04 Y139.44 E15.96623
G1 X98.20 Y138.35 E16.13150
G1 X97.69 Y137.10 E16.29304
G1 X97.54 Y135.96 E16.43081
G1 X97.54 Y126.18 E17.60429
G1 X97.42 Y126.10 E17.62167
G1 X96.08 Y124.82 E17.84424
G1 X94.86 Y123.42 E18.06699
G1 X93.81 Y121.90 E18.28937
G1 X92.90 Y120.28 E18.51187
G1 X92.17 Y118.57 E18.73442
G1 X91.62 Y116.81 E18.95648
G1 X91.25 Y115.02 E19.17512
G1 X91.06 Y113.17 E19.39802
G1 X91.06 Y111.29 E19.62470
G1 X91.25 Y109.44 E19.84718
G1 X91.64 Y107.62 E20.06994
G1 X92.20 Y105.86 E20.29233
G1 X92.94 Y104.16 E20.51499
G1 X93.84 Y102.54 E20.73748
G1 X94.91 Y101.03 E20.95978
G1 X96.13 Y99.62 E21.18239
G1 X97.48 Y98.36 E21.40482
G1 X97.54 Y98.31 E21.41406
G1 X97.54 Y89.02 E22.52898
G1 X97.70 Y87.88 E22.66699
G1 X98.21 Y86.64 E22.82793
G1 X99.05 Y85.55 E22.99286
G0 F3600 X108.32 Y109.41
G1 F1200 X107.88 Y109.59 E23.04920
G1 X107.48 Y109.83 E23.10576
G1 X107.13 Y110.14 E23.16167
G1 X106.82 Y110.49 E23.21759
G1 X106.58 Y110.89 E23.27414
G1 X106.40 Y111.33 E23.33048
G1 X106.29 Y111.79 E23.38726
G1 X106.25 Y112.25 E23.44324
G1 X106.29 Y112.71 E23.49898
G1 X106.40 Y113.17 E23.55588
G1 X106.58 Y113.61 E23.61221
G1 X106.82 Y114.01 E23.66877
G1 X107.13 Y114.36 E23.72468
G1 X107.48 Y114.67 E23.78060
G1 X107.88 Y114.91 E23.83716
G1 X108.32 Y115.09 E23.89349
G1 X108.78 Y115.20 E23.95039
G1 X109.37 Y115.25 E24.02142
G1 X122.48 Y115.25 E25.59510
G1 X123.01 Y115.20 E25.65818
G1 X123.47 Y115.09 E25.71496
G1 X123.90 Y114.91 E25.77130
G1 X124.30 Y114.67 E25.82785
G1 X124.66 Y114.36 E25.88377
G1 X124.96 Y114.01 E25.93969
G1 X125.20 Y113.61 E25.99624
G1 X125.38 Y113.17 E26.05258
G1 X125.49 Y112.71 E26.10936
G1 X125.53 Y112.25 E26.16521
G1 X125.49 Y111.79 E26.22118
G1 X125.38 Y111.33 E26.27796
G1 X125.20 Y110.89 E26.33430
G1 X124.96 Y110.49 E26.39085
G1 X124.66 Y110.14 E26.44677
G1 X124.30 Y109.83 E26.50268
G1 X123.90 Y109.59 E26.55924
G1 X123.47 Y109.41 E26.61558
G1 X123.00 Y109.30 E26.67248
G1 X122.41 Y109.25 E26.74350
G1 X109.30 Y109.25 E28.31718
G1 X108.78 Y109.30 E28.38026
G1 X108.32 Y109.41 E28.43705
G10
G0 F3600 X107.14 Y105.78
;TYPE:WALL-INNER
G11
G1 F1200 X106.15 Y106.19 E28.56510
G1 X105.24 Y106.75 E28.69329
G1 X104.43 Y107.44 E28.82132
G1 X103.74 Y108.25 E28.94934
G1 X103.18 Y109.16 E29.07754
G1 X102.77 Y110.15 E29.20559
G1 X102.52 Y111.19 E29.33368
G1 X102.44 Y112.25 E29.46177
G1 X102.52 Y113.31 E29.58974
G1 X102.77 Y114.35 E29.71783
G1 X103.18 Y115.34 E29.84588
G1 X103.74 Y116.25 E29.97408
G1 X104.43 Y117.06 E30.10210
G1 X105.24 Y117.75 E30.23013
G1 X106.15 Y118.31 E30.35832
G1 X107.14 Y118.72 E30.48637
G1 X108.18 Y118.97 E30.61447
G1 X109.22 Y119.05 E30.73954
G1 X122.64 Y119.05 E32.35006
G1 X123.61 Y118.97 E32.46660
G1 X124.64 Y118.72 E32.59458
G1 X125.63 Y118.31 E32.72263
G1 X126.54 Y117.75 E32.85082
G1 X127.35 Y117.06 E32.97885
G1 X128.04 Y116.25 E33.10687
G1 X128.60 Y115.34 E33.23507
G1 X129.01 Y114.35 E33.36312
G1 X129.26 Y113.31 E33.49121
G1 X129.34 Y112.25 E33.61917
G1 X129.26 Y111.19 E33.74725
G1 X129.01 Y110.15 E33.87534
G1 X128.60 Y109.16 E34.00339
G1 X128.04 Y108.25 E34.13159
G1 X127.35 Y107.44 E34.25961
G1 X126.54 Y106.75 E34.38764
G1 X125.63 Y106.19 E34.51583
G1 X124.64 Y105.78 E34.64388
G1 X123.60 Y105.53 E34.77198
G1 X122.57 Y105.45 E34.89705
G1 X109.14 Y105.45 E36.50757
G1 X108.18 Y105.53 E36.62411
G1 X107.14 Y105.78 E36.75209
G0 F3600 X106.07 Y98.93
G1 F1200 X106.69 Y98.75 E36.82907
G1 X107.22 Y98.40 E36.90480
G1 X107.64 Y97.91 E36.98291
G1 X107.91 Y97.33 E37.05895
G1 X108.00 Y96.70 E37.13615
G1 X107.90 Y96.06 E37.21403
G1 X107.64 Y95.48 E37.29023
G1 X107.21 Y94.99 E37.36828
G1 X106.68 Y94.65 E37.44391
G1 X106.06 Y94.47 E37.52122
G1 X105.41 Y94.47 E37.59958
G1 X104.79 Y94.65 E37.67657
G1 X104.26 Y95.00 E37.75230
G1 X103.84 Y95.49 E37.83040
G1 X103.58 Y96.06 E37.90645
G1 X103.49 Y96.70 E37.98353
G1 X103.58 Y97.34 E38.06141
G1 X103.84 Y97.92 E38.13772
G1 X104.27 Y98.41 E38.21577
G1 X104.80 Y98.75 E38.29140
G1 X105.42 Y98.93 E38.36870
G1 X106.07 Y98.93 E38.44706
G0 F3600 X101.34 Y100.19
G1 F1200 X101.34 Y89.28 E39.75578
G1 X101.40 Y88.88 E39.80376
G1 X101.53 Y88.55 E39.84713
G1 X101.75 Y88.26 E39.89062
G1 X102.05 Y88.04 E39.93490
G1 X102.38 Y87.90 E39.97784
G1 X102.78 Y87.85 E40.02638
G1 X133.71 Y87.85 E43.73822
G1 X134.11 Y87.91 E43.78594
G1 X134.44 Y88.04 E43.82931
G1 X134.72 Y88.26 E43.87236
G1 X134.95 Y88.56 E43.91725
G1 X135.09 Y88.89 E43.96008
G1 X135.14 Y89.29 E44.00861
G1 X135.14 Y127.71 E48.61937
G1 X135.09 Y128.12 E48.66830
G1 X134.95 Y128.45 E48.71129
G1 X134.73 Y128.73 E48.75452
G1 X134.43 Y128.96 E48.79940
G1 X134.10 Y129.10 E48.84223
G1 X133.70 Y129.15 E48.89090
G1 X126.63 Y129.15 E49.73894
G1 X126.88 Y128.86 E49.78430
G1 X127.15 Y128.26 E49.86345
G1 X127.25 Y127.60 E49.94417
G1 X127.15 Y126.93 E50.02568
G1 X126.87 Y126.32 E50.10499
G1 X126.42 Y125.81 E50.18654
G1 X125.87 Y125.46 E50.26566
G1 X125.23 Y125.27 E50.34612
G1 X124.54 Y125.27 E50.42820
G1 X123.90 Y125.46 E50.50845
G1 X123.35 Y125.82 E50.58767
G1 X122.90 Y126.34 E50.66937
G1 X122.63 Y126.94 E50.74842
G1 X122.53 Y127.60 E50.82915
G1 X122.63 Y128.27 E50.91079
G1 X122.91 Y128.88 E50.99010
G1 X123.15 Y129.15 E51.03398
G1 X120.64 Y129.15 E51.33518
G1 X120.64 Y137.15 E52.29518
G1 X102.77 Y137.15 E54.43958
G1 X102.37 Y137.09 E54.48768
G1 X102.04 Y136.96 E54.53067
G1 X101.75 Y136.74 E54.57423
G1 X101.53 Y136.44 E54.61858
G1 X101.39 Y136.11 E54.66152
G1 X101.34 Y135.71 E54.71032
G1 X101.34 Y124.31 E56.07760
G1 X99.89 Y123.20 E56.29707
G1 X98.83 Y122.19 E56.47253
G1 X97.87 Y121.08 E56.64866
G1 X97.03 Y119.88 E56.82440
G1 X96.32 Y118.60 E57.00059
G1 X95.74 Y117.26 E57.17600
G1 X95.30 Y115.85 E57.35244
G1 X95.01 Y114.44 E57.52573
G1 X94.86 Y112.98 E57.70123
G1 X94.86 Y111.49 E57.88063
G1 X95.02 Y110.02 E58.05737
G1 X95.31 Y108.60 E58.23221
G1 X95.76 Y107.19 E58.40948
G1 X96.34 Y105.85 E58.58458
G1 X97.06 Y104.57 E58.76081
G1 X97.91 Y103.37 E58.93739
G1 X98.86 Y102.27 E59.11194
G1 X99.95 Y101.25 E59.29013
G1 X101.34 Y100.19 E59.50079
G0 F3600 X122.63 Y97.36
G1 F1200 X122.91 Y97.97 E59.58128
G1 X123.35 Y98.48 E59.66176
G1 X123.91 Y98.84 E59.74222
G1 X124.55 Y99.03 E59.82256
G1 X125.23 Y99.03 E59.90332
G1 X125.87 Y98.84 E59.98367
G1 X126.43 Y98.48 E60.06412
G1 X126.87 Y97.97 E60.14460
G1 X127.15 Y97.36 E60.22520
G1 X127.25 Y96.70 E60.30568
G1 X127.15 Y96.04 E60.38603
G1 X126.87 Y95.42 E60.46664
G1 X126.43 Y94.92 E60.54711
G1 X125.87 Y94.56 E60.62757
G1 X125.23 Y94.37 E60.70792
G1 X124.55 Y94.37 E60.78868
G1 X123.91 Y94.56 E60.86902
G1 X123.35 Y94.92 E60.94948
G1 X122.91 Y95.42 E61.02995
G1 X122.63 Y96.03 E61.11045
G1 X122.53 Y96.70 E61.19094
G1 X122.63 Y97.36 E61.27155
G0 F3600 X129.01 Y110.15
G0 X129.26 Y113.31
G0 X128.04 Y116.25
G0 X125.63 Y118.31
G0 X122.64 Y119.04
G0 X106.68 Y125.55
G1 F1200 X106.06 Y125.37 E61.34886
G1 X105.41 Y125.37 E61.42722
G1 X104.79 Y125.55 E61.50420
G1 X104.26 Y125.90 E61.57993
G1 X103.84 Y126.39 E61.65804
G1 X103.58 Y126.97 E61.73408
G1 X103.49 Y127.60 E61.81116
G1 X103.58 Y128.24 E61.88904
G1 X103.84 Y128.82 E61.96536
G1 X104.27 Y129.31 E62.04341
G1 X104.80 Y129.65 E62.11903
G1 X105.42 Y129.83 E62.19634
G1 X106.07 Y129.83 E62.27470
G1 X106.69 Y129.65 E62.35169
G1 X107.22 Y129.30 E62.42742
G1 X107.64 Y128.81 E62.50552
G1 X107.91 Y128.23 E62.58157
G1 X108.00 Y127.60 E62.65877
G1 X107.90 Y126.96 E62.73665
G1 X107.64 Y126.38 E62.81285
G1 X107.21 Y125.89 E62.89090
G1 X106.68 Y125.55 E62.96653
G0 F3600 X106.51 Y125.92
;TYPE:WALL-OUTER
G1 F1200 X106.00 Y125.77 E63.02994
G1 X105.47 Y125.77 E63.09426
G1 X104.96 Y125.92 E63.15758
G1 X104.53 Y126.20 E63.21959
G1 X104.18 Y126.61 E63.28384
G1 X103.96 Y127.08 E63.34608
G1 X103.89 Y127.60 E63.40935
G1 X103.97 Y128.13 E63.47351
G1 X104.18 Y128.60 E63.53586
G1 X104.54 Y129.00 E63.60014
G1 X104.97 Y129.28 E63.66222
G1 X105.48 Y129.43 E63.72563
G1 X106.01 Y129.43 E63.78995
G1 X106.52 Y129.28 E63.85327
G1 X106.95 Y129.00 E63.91528
G1 X107.30 Y128.59 E63.97953
G1 X107.52 Y128.12 E64.04177
G1 X107.59 Y127.60 E64.10516
G1 X107.51 Y127.07 E64.16920
G1 X107.30 Y126.60 E64.23155
G1 X106.94 Y126.19 E64.29583
G1 X106.51 Y125.92 E64.35791
G0 F3600 X106.60 Y125.63
G0 X101.24 Y124.51
G0 X100.94 Y124.51
G1 F1200 X99.63 Y123.50 E64.55676
G1 X98.54 Y122.47 E64.73605
G1 X97.55 Y121.33 E64.91771
G1 X96.69 Y120.10 E65.09794
G1 X95.96 Y118.78 E65.27907
G1 X95.36 Y117.39 E65.46023
G1 X94.91 Y115.95 E65.64108
G1 X94.61 Y114.50 E65.81876
G1 X94.46 Y113.00 E65.99934
G1 X94.46 Y111.47 E66.18390
G1 X94.62 Y109.97 E66.36475
G1 X94.93 Y108.49 E66.54620
G1 X95.39 Y107.04 E66.72791
G1 X95.98 Y105.67 E66.90768
G1 X96.72 Y104.36 E67.08746
G1 X97.59 Y103.12 E67.26997
G1 X98.58 Y101.99 E67.45005
G1 X99.68 Y100.95 E67.63121
G1 X100.94 Y99.99 E67.82176
G1 X100.94 Y89.25 E69.10996
G1 X101.01 Y88.78 E69.16788
G1 X101.18 Y88.35 E69.22288
G1 X101.47 Y87.98 E69.27971
G1 X101.85 Y87.69 E69.33683
G1 X102.28 Y87.51 E69.39226
G1 X102.75 Y87.45 E69.44974
G1 X133.74 Y87.45 E73.16818
G1 X134.21 Y87.52 E73.22583
G1 X134.64 Y87.69 E73.28087
G1 X135.01 Y87.98 E73.33771
G1 X135.30 Y88.36 E73.39492
G1 X135.48 Y88.78 E73.45024
G1 X135.54 Y89.26 E73.50784
G1 X135.54 Y127.74 E78.12508
G1 X135.47 Y128.22 E78.18381
G1 X135.30 Y128.65 E78.23870
G1 X135.01 Y129.02 E78.29561
G1 X134.63 Y129.31 E78.35290
G1 X134.21 Y129.49 E78.40821
G1 X133.73 Y129.55 E78.46583
G1 X121.04 Y129.55 E79.98851
G1 X121.04 Y137.55 E80.94851
G1 X102.74 Y137.55 E83.14403
G1 X102.27 Y137.48 E83.20183
G1 X101.84 Y137.31 E83.25694
G1 X101.47 Y137.02 E83.31368
G1 X101.18 Y136.64 E83.37080
G1 X101.00 Y136.21 E83.42622
G1 X100.94 Y135.74 E83.48372
G1 X100.94 Y124.51 E84.83108
G0 F3600 X101.24 Y124.51
G0 X105.32 Y117.68
G0 X105.48 Y117.43
G1 F1200 X106.33 Y117.95 E84.95175
G1 X107.26 Y118.34 E85.07226
G1 X108.24 Y118.57 E85.19282
G1 X109.23 Y118.65 E85.31224
G1 X122.62 Y118.65 E86.91892
G1 X123.54 Y118.57 E87.02979
G1 X124.52 Y118.34 E87.15023
G1 X125.45 Y117.95 E87.27075
G1 X126.30 Y117.43 E87.39141
G1 X127.07 Y116.78 E87.51186
G1 X127.72 Y116.01 E87.63231
G1 X128.24 Y115.16 E87.75298
G1 X128.63 Y114.23 E87.87349
G1 X128.86 Y113.25 E87.99405
G1 X128.94 Y112.25 E88.11442
G1 X128.86 Y111.25 E88.23492
G1 X128.63 Y110.27 E88.35547
G1 X128.24 Y109.34 E88.47599
G1 X127.72 Y108.49 E88.59666
G1 X127.07 Y107.72 E88.71711
G1 X126.30 Y107.07 E88.83755
G1 X125.45 Y106.55 E88.95822
G1 X124.52 Y106.16 E89.07874
G1 X123.54 Y105.93 E89.19929
G1 X122.55 Y105.85 E89.31871
G1 X109.16 Y105.85 E90.92539
G1 X108.24 Y105.93 E91.03627
G1 X107.26 Y106.16 E91.15671
G1 X106.33 Y106.55 E91.27722
G1 X105.48 Y107.07 E91.39789
G1 X104.71 Y107.72 E91.51834
G1 X104.06 Y108.49 E91.63879
G1 X103.54 Y109.34 E91.75945
G1 X103.15 Y110.27 E91.87997
G1 X102.92 Y111.25 E92.00053
G1 X102.84 Y112.25 E92.12103
G1 X102.92 Y113.25 E92.24141
G1 X103.15 Y114.23 E92.36197
G1 X103.54 Y115.16 E92.48248
G1 X104.06 Y116.01 E92.60315
G1 X104.71 Y116.78 E92.72360
G1 X105.48 Y117.43 E92.84405
G0 F3600 X105.32 Y117.68
G0 X122.97 Y126.43
G0 X123.24 Y126.55
G1 F1200 X123.02 Y127.05 E92.90951
G1 X122.94 Y127.60 E92.97630
G1 X123.02 Y128.16 E93.04412
G1 X123.25 Y128.66 E93.10968
G1 X123.62 Y129.08 E93.17737
G1 X124.08 Y129.38 E93.24295
G1 X124.61 Y129.53 E93.30951
G1 X125.18 Y129.53 E93.37755
G1 X125.71 Y129.37 E93.44413
G1 X126.17 Y129.07 E93.50964
G1 X126.54 Y128.65 E93.57739
G1 X126.76 Y128.15 E93.64285
G1 X126.84 Y127.60 E93.70975
G1 X126.76 Y127.04 E93.77743
G1 X126.53 Y126.54 E93.84299
G1 X126.16 Y126.12 E93.91068
G1 X125.70 Y125.82 E93.97626
G1 X125.17 Y125.67 E94.04282
G1 X124.60 Y125.67 E94.11086
G1 X124.07 Y125.83 E94.17744
G1 X123.61 Y126.12 E94.24295
G1 X123.24 Y126.55 E94.31070
G0 F3600 X122.97 Y126.43
G0 X129.01 Y114.35
G0 X129.26 Y111.19
G0 X128.04 Y108.25
G0 X125.63 Y106.19
G0 X124.53 Y98.92
G0 X124.61 Y98.63
G1 F1200 X125.17 Y98.63 E94.37754
G1 X125.70 Y98.47 E94.44410
G1 X126.17 Y98.17 E94.51081
G1 X126.53 Y97.75 E94.57750
G1 X126.76 Y97.25 E94.64414
G1 X126.84 Y96.70 E94.71092
G1 X126.76 Y96.15 E94.77758
G1 X126.53 Y95.64 E94.84422
G1 X126.17 Y95.22 E94.91092
G1 X125.70 Y94.92 E94.97762
G1 X125.17 Y94.77 E95.04419
G1 X124.61 Y94.77 E95.11103
G1 X124.08 Y94.92 E95.17759
G1 X123.61 Y95.22 E95.24430
G1 X123.25 Y95.64 E95.31099
G1 X123.02 Y96.15 E95.37763
G1 X122.94 Y96.70 E95.44431
G1 X123.02 Y97.25 E95.51110
G1 X123.25 Y97.75 E95.57774
G1 X123.61 Y98.17 E95.64444
G1 X124.08 Y98.47 E95.71114
G1 X124.61 Y98.63 E95.77771
G0 F3600 X124.53 Y98.92
G0 X107.89 Y96.74
G0 X107.59 Y96.70
G1 F1200 X107.51 Y96.17 E95.84175
G1 X107.30 Y95.70 E95.90410
G1 X106.94 Y95.30 E95.96838
G1 X106.51 Y95.02 E96.03046
G1 X106.00 Y94.87 E96.09387
G1 X105.47 Y94.87 E96.15819
G1 X104.96 Y95.02 E96.22151
G1 X104.53 Y95.30 E96.28353
G1 X104.18 Y95.71 E96.34777
G1 X103.96 Y96.18 E96.41001
G1 X103.89 Y96.70 E96.47328
G1 X103.97 Y97.23 E96.53744
G1 X104.18 Y97.70 E96.59979
G1 X104.54 Y98.10 E96.66407
G1 X104.97 Y98.38 E96.72615
G1 X105.48 Y98.53 E96.78956
G1 X106.01 Y98.53 E96.85388
G1 X106.52 Y98.38 E96.91720
G1 X106.95 Y98.10 E96.97922
G1 X107.30 Y97.69 E97.04346
G1 X107.52 Y97.22 E97.10570
G1 X107.59 Y96.70 E97.16909
G0 F3600 X108.11 Y96.51
;TYPE:FILL
G1 F1200 X116.91 Y105.31 E98.66207
G0 F3600 X116.34 Y105.31
G1 F1200 X108.09 Y97.06 E100.06299
G0 F3600 X107.98 Y97.51
G1 F1200 X115.78 Y105.31 E101.38670
G0 F3600 X115.21 Y105.31
G1 F1200 X107.80 Y97.90 E102.64447
G0 F3600 X107.56 Y98.22
G1 F1200 X114.65 Y105.31 E103.84717
G0 F3600 X114.08 Y105.31
G1 F1200 X107.29 Y98.52 E104.99897
G0 F3600 X106.95 Y98.74
G1 F1200 X113.51 Y105.31 E106.11351
G0 F3600 X112.95 Y105.31
G1 F1200 X106.57 Y98.93 E107.19682
G0 F3600 X106.13 Y99.06
G1 F1200 X112.38 Y105.31 E108.25782
G0 F3600 X111.82 Y105.31
G1 F1200 X105.58 Y99.07 E109.31670
G0 F3600 X104.85 Y98.91
G1 F1200 X111.25 Y105.31 E110.40316
G0 F3600 X110.69 Y105.31
G1 F1200 X101.48 Y96.11 E111.96564
G0 F3600 X101.48 Y95.54
G1 F1200 X103.55 Y97.61 E112.31616
G0 F3600 X103.37 Y96.86
G1 F1200 X101.48 Y94.97 E112.63631
G0 F3600 X101.48 Y94.41
G1 F1200 X103.40 Y96.32 E112.96147
G0 F3600 X103.51 Y95.87
G1 F1200 X101.48 Y93.84 E113.30580
G0 F3600 X101.48 Y93.28
G1 F1200 X103.69 Y95.48 E113.68017
G0 F3600 X103.93 Y95.16
G1 F1200 X101.48 Y92.71 E114.09612
G0 F3600 X101.48 Y92.14
G1 F1200 X104.20 Y94.87 E114.55781
G0 F3600 X104.55 Y94.64
G1 F1200 X101.48 Y91.58 E115.07804
G0 F3600 X101.48 Y91.01
G1 F1200 X104.93 Y94.47 E115.66369
G0 F3600 X105.36 Y94.33
G1 F1200 X101.48 Y90.45 E116.32283
G0 F3600 X101.48 Y89.88
G1 F1200 X105.92 Y94.33 E117.07675
G0 F3600 X106.66 Y94.50
G1 F1200 X101.48 Y89.32 E117.95582
G0 F3600 X101.57 Y88.84
G1 F1200 X118.04 Y105.31 E120.75130
G0 F3600 X117.47 Y105.31
G1 F1200 X107.92 Y95.75 E122.37292
G0 F3600 X106.68 Y94.65
G0 X104.80 Y94.66
G0 X103.58 Y96.07
G0 X101.48 Y96.67
G1 F1200 X110.12 Y105.31 E123.83943
