;Generated with Cura_SteamEngine 13.12
;FLAVOR:UltiGCode
;TIME:2663      
;MATERIAL:3898      
;MATERIAL2:0         

;Layer count: 70
;LAYER:0
M107
G0 F3600 X152.34 Y87.84 Z0.30
;TYPE:SKIRT
G11
G1 F1200 X153.16 Y86.59 E0.17933
G1 X154.19 Y85.47 E0.36189
G1 X155.34 Y84.58 E0.53685
G1 X156.69 Y83.86 E0.72008
G1 X158.09 Y83.39 E0.89752
G1 X159.53 Y83.14 E1.07235
G1 X161.06 Y83.15 E1.25559
G1 X162.52 Y83.41 E1.43411
G1 X163.93 Y83.89 E1.61267
G1 X165.23 Y84.61 E1.79119
G1 X166.40 Y85.52 E1.96871
G1 X167.38 Y86.60 E2.14408
G1 X168.21 Y87.88 E2.32716
G1 X168.80 Y89.24 E2.50442
G1 X169.15 Y90.64 E2.67811
G1 X169.22 Y91.48 E2.77879
G1 X173.96 Y91.48 E3.34687
G1 X175.13 Y91.63 E3.48907
G1 X176.46 Y92.14 E3.65944
G1 X177.63 Y92.98 E3.83206
G1 X178.52 Y94.04 E3.99869
G1 X179.14 Y95.27 E4.16371
G1 X179.40 Y96.45 E4.30868
G1 X184.02 Y145.42 E10.21202
G1 X183.95 Y146.66 E10.36079
G1 X183.50 Y148.00 E10.53060
G1 X182.69 Y149.20 E10.70424
G1 X181.57 Y150.12 E10.87783
G1 X180.25 Y150.71 E11.05120
G1 X179.04 Y150.88 E11.19818
G1 X177.53 Y150.88 E11.37974
G1 X176.48 Y150.74 E11.50680
G1 X175.32 Y150.30 E11.65542
G1 X174.30 Y149.60 E11.80398
G1 X173.47 Y148.67 E11.95268
G1 X172.89 Y147.59 E12.10043
G1 X172.63 Y146.60 E12.22291
G1 X171.59 Y139.35 E13.10236
G1 X170.23 Y139.35 E13.26592
G1 X170.23 Y131.15 E14.24992
G1 X170.42 Y131.15 E14.27284
G1 X168.24 Y115.88 E16.12374
G1 X163.90 Y115.88 E16.64442
G1 X163.88 Y115.90 E16.64790
G1 X162.61 Y116.81 E16.83466
G1 X161.23 Y117.52 E17.02132
G1 X159.76 Y118.03 E17.20784
G1 X158.23 Y118.32 E17.39469
G1 X156.68 Y118.38 E17.58157
G1 X155.12 Y118.22 E17.77004
G1 X153.54 Y117.80 E17.96578
G1 X152.19 Y117.23 E18.14151
G1 X150.85 Y116.43 E18.32817
G1 X149.65 Y115.45 E18.51491
G1 X148.60 Y114.30 E18.70170
G1 X147.73 Y113.01 E18.88832
G1 X147.05 Y111.59 E19.07692
G1 X146.58 Y110.03 E19.27285
G1 X146.35 Y108.59 E19.44831
G1 X146.33 Y107.01 E19.63697
G1 X146.56 Y105.38 E19.83494
G1 X147.01 Y103.89 E20.02151
G1 X147.65 Y102.50 E20.20610
G1 X148.44 Y101.26 E20.38176
G1 X149.47 Y100.08 E20.57034
G1 X150.72 Y99.03 E20.76595
G1 X151.27 Y98.68 E20.84401
G1 X151.27 Y91.95 E21.65065
G1 X151.39 Y90.60 E21.81413
G1 X151.76 Y89.16 E21.99176
G1 X152.34 Y87.84 E22.16553
G10
G0 F3600 X155.69 Y89.66
;TYPE:WALL-INNER
G11
G1 F1200 X156.16 Y88.93 E22.26924
G1 X156.77 Y88.28 E22.37555
G1 X157.42 Y87.78 E22.47502
G1 X158.20 Y87.36 E22.58105
G1 X159.02 Y87.08 E22.68476
G1 X159.84 Y86.95 E22.78417
G1 X160.72 Y86.95 E22.89049
G1 X161.56 Y87.10 E22.99290
G1 X162.38 Y87.38 E23.09631
G1 X163.13 Y87.79 E23.19959
G1 X163.80 Y88.32 E23.30207
G1 X164.37 Y88.93 E23.40203
G1 X164.85 Y89.67 E23.50778
G1 X165.19 Y90.47 E23.61135
G1 X165.39 Y91.27 E23.71112
G1 X165.47 Y92.15 E23.81650
G1 X165.47 Y92.24 E23.82718
G1 X165.54 Y92.87 E23.90349
G1 X165.78 Y93.54 E23.98927
G1 X166.15 Y94.13 E24.07232
G1 X166.63 Y94.60 E24.15336
G1 X167.22 Y94.97 E24.23682
G1 X167.87 Y95.20 E24.32013
G1 X168.53 Y95.28 E24.39959
G1 X173.72 Y95.28 E25.02275
G1 X174.20 Y95.34 E25.08018
G1 X174.63 Y95.50 E25.13599
G1 X175.03 Y95.79 E25.19427
G1 X175.32 Y96.14 E25.24954
G1 X175.53 Y96.54 E25.30363
G1 X175.64 Y97.04 E25.36434
G1 X179.92 Y142.49 E30.84280
G1 X179.90 Y142.44 E30.84902
G1 X179.49 Y141.97 E30.92388
G1 X178.95 Y141.63 E31.00090
G1 X178.33 Y141.44 E31.07836
G1 X177.68 Y141.45 E31.15709
G1 X177.07 Y141.63 E31.23253
G1 X176.53 Y141.99 E31.31115
G1 X176.12 Y142.46 E31.38608
G1 X175.93 Y142.86 E31.43924
G1 X171.97 Y115.12 E34.80223
G1 X171.79 Y114.44 E34.88643
G1 X171.48 Y113.79 E34.97236
G1 X171.02 Y113.19 E35.06278
G1 X170.48 Y112.73 E35.14853
G1 X169.82 Y112.36 E35.23887
G1 X169.14 Y112.15 E35.32445
G1 X168.44 Y112.08 E35.40876
G1 X162.36 Y112.08 E36.13848
G1 X161.43 Y112.97 E36.29370
G1 X160.62 Y113.56 E36.41339
G1 X159.73 Y114.02 E36.53361
G1 X158.79 Y114.34 E36.65372
G1 X157.79 Y114.53 E36.77498
G1 X156.80 Y114.57 E36.89388
G1 X155.80 Y114.47 E37.01491
G1 X154.76 Y114.19 E37.14362
G1 X153.90 Y113.83 E37.25567
G1 X153.04 Y113.32 E37.37565
G1 X152.27 Y112.68 E37.49598
G1 X151.60 Y111.94 E37.61583
G1 X151.04 Y111.11 E37.73625
G1 X150.60 Y110.21 E37.85706
G1 X150.29 Y109.19 E37.98504
G1 X150.14 Y108.26 E38.09757
G1 X150.13 Y107.26 E38.21721
G1 X150.28 Y106.20 E38.34633
G1 X150.57 Y105.24 E38.46600
G1 X150.99 Y104.32 E38.58739
G1 X151.49 Y103.55 E38.69787
G1 X152.15 Y102.79 E38.81824
G1 X152.97 Y102.09 E38.94827
G1 X153.75 Y101.60 E39.05902
G1 X155.07 Y101.01 E39.23131
G1 X155.07 Y92.12 E40.29811
G1 X155.15 Y91.24 E40.40424
G1 X155.36 Y90.41 E40.50762
G1 X155.69 Y89.66 E40.60617
G0 F3600 X156.67 Y89.76
G1 F1200 X156.28 Y90.50 E40.70703
G1 X156.05 Y91.29 E40.80520
G1 X155.96 Y92.13 E40.90650
G1 X156.05 Y92.99 E41.01074
G1 X156.30 Y93.79 E41.11166
G1 X156.69 Y94.52 E41.21012
G1 X157.24 Y95.19 E41.31443
G1 X157.90 Y95.72 E41.41571
G1 X158.64 Y96.11 E41.51656
G1 X159.43 Y96.35 E41.61473
G1 X160.27 Y96.43 E41.71602
G1 X161.13 Y96.34 E41.82025
G1 X161.93 Y96.09 E41.92118
G1 X162.66 Y95.70 E42.01963
G1 X163.33 Y95.15 E42.12394
G1 X163.86 Y94.49 E42.22522
G1 X164.25 Y93.75 E42.32608
G1 X164.49 Y92.97 E42.42425
G1 X164.57 Y92.12 E42.52579
G1 X164.48 Y91.26 E42.62991
G1 X164.23 Y90.46 E42.73072
G1 X163.84 Y89.73 E42.82917
G1 X163.29 Y89.07 E42.93348
G1 X162.63 Y88.53 E43.03476
G1 X161.89 Y88.14 E43.13562
G1 X161.10 Y87.91 E43.23379
G1 X160.26 Y87.82 E43.33532
G1 X159.40 Y87.91 E43.43931
G1 X158.60 Y88.16 E43.54023
G1 X157.87 Y88.55 E43.63869
G1 X157.21 Y89.10 E43.74300
G1 X156.67 Y89.76 E43.84427
G0 F3600 X155.96 Y92.13
G0 X156.69 Y94.52
G0 X158.65 Y96.11
G0 X174.07 Y116.63
G1 F1200 X173.53 Y116.99 E43.92289
G1 X173.12 Y117.46 E43.99782
G1 X172.85 Y118.04 E44.07499
G1 X172.76 Y118.68 E44.15209
G1 X172.85 Y119.32 E44.22944
G1 X173.13 Y119.91 E44.30825
G1 X173.54 Y120.38 E44.38310
G1 X174.08 Y120.73 E44.46013
G1 X174.70 Y120.91 E44.53759
G1 X175.35 Y120.91 E44.61631
G1 X175.96 Y120.73 E44.69176
G1 X176.50 Y120.37 E44.77037
G1 X176.91 Y119.90 E44.84530
G1 X177.18 Y119.31 E44.92247
G1 X177.27 Y118.68 E44.99945
G1 X177.18 Y118.04 E45.07680
G1 X176.90 Y117.44 E45.15572
G1 X176.49 Y116.97 E45.23057
G1 X175.95 Y116.63 E45.30760
G1 X175.33 Y116.44 E45.38506
G1 X174.68 Y116.45 E45.46378
G1 X174.07 Y116.63 E45.53923
G10
G0 F3600 X180.11 Y144.47
G11
G1 F1200 X180.21 Y145.50 E45.66386
G1 X180.18 Y145.94 E45.71734
G1 X180.07 Y146.29 E45.76163
G1 X179.85 Y146.62 E45.80809
G1 X179.55 Y146.86 E45.85411
G1 X179.20 Y147.02 E45.90085
G1 X178.78 Y147.08 E45.95174
G1 X177.77 Y147.08 E46.07222
G1 X177.41 Y147.03 E46.11591
G1 X177.10 Y146.91 E46.15582
G1 X176.83 Y146.72 E46.19583
G1 X176.61 Y146.48 E46.23526
G1 X176.45 Y146.18 E46.27509
G1 X176.36 Y145.84 E46.31832
G1 X176.25 Y145.04 E46.41434
G1 X176.54 Y145.38 E46.46792
G1 X177.08 Y145.73 E46.54495
G1 X177.70 Y145.91 E46.62241
G1 X178.35 Y145.91 E46.70113
G1 X178.96 Y145.73 E46.77658
G1 X179.50 Y145.37 E46.85519
G1 X179.91 Y144.90 E46.93013
G1 X180.11 Y144.47 E46.98694
G0 F3600 X179.79 Y144.20
;TYPE:WALL-OUTER
G1 F1200 X179.87 Y143.68 E47.05009
G1 X179.79 Y143.15 E47.11348
G1 X179.56 Y142.66 E47.17854
G1 X179.23 Y142.28 E47.23987
G1 X178.79 Y141.99 E47.30308
G1 X178.28 Y141.84 E47.36649
G1 X177.74 Y141.85 E47.43142
G1 X177.25 Y141.99 E47.49300
G1 X176.79 Y142.29 E47.55794
G1 X176.46 Y142.68 E47.61927
G1 X176.24 Y143.16 E47.68258
G1 X176.16 Y143.68 E47.74586
G1 X176.24 Y144.20 E47.80915
G1 X176.47 Y144.69 E47.87421
G1 X176.80 Y145.08 E47.93554
G1 X177.25 Y145.36 E47.99875
G1 X177.75 Y145.51 E48.06217
G1 X178.29 Y145.51 E48.12709
G1 X178.79 Y145.36 E48.18867
G1 X179.24 Y145.06 E48.25361
G1 X179.57 Y144.68 E48.31494
G1 X179.79 Y144.20 E48.37825
G0 F3600 X180.07 Y144.32
G0 X180.31 Y145.50
G0 X180.61 Y145.49
G1 F1200 X180.58 Y146.02 E48.44218
G1 X180.43 Y146.48 E48.49986
G1 X180.15 Y146.89 E48.55934
G1 X179.76 Y147.20 E48.61908
G1 X179.31 Y147.41 E48.67882
G1 X178.80 Y147.48 E48.74013
G1 X177.75 Y147.48 E48.86709
G1 X177.31 Y147.42 E48.91937
G1 X176.92 Y147.27 E48.97038
G1 X176.56 Y147.02 E49.02197
G1 X176.28 Y146.70 E49.07355
G1 X176.08 Y146.33 E49.12418
G1 X175.97 Y145.92 E49.17538
G1 X171.57 Y115.19 E52.89996
G1 X171.42 Y114.57 E52.97686
G1 X171.14 Y114.00 E53.05291
G1 X170.73 Y113.47 E53.13349
G1 X170.25 Y113.06 E53.20937
G1 X169.66 Y112.73 E53.28999
G1 X169.06 Y112.54 E53.36574
G1 X168.42 Y112.48 E53.44282
G1 X162.53 Y112.48 E54.15070
G1 X161.69 Y113.28 E54.28962
G1 X160.84 Y113.90 E54.41627
G1 X159.89 Y114.39 E54.54433
G1 X158.89 Y114.73 E54.67078
G1 X157.84 Y114.93 E54.79876
G1 X156.79 Y114.97 E54.92583
G1 X155.73 Y114.86 E55.05337
G1 X154.64 Y114.57 E55.18866
G1 X153.72 Y114.19 E55.30802
G1 X152.82 Y113.65 E55.43413
G1 X151.99 Y112.97 E55.56205
G1 X151.28 Y112.19 E55.68929
G1 X150.69 Y111.31 E55.81687
G1 X150.22 Y110.35 E55.94407
G1 X149.90 Y109.27 E56.07944
G1 X149.74 Y108.29 E56.19864
G1 X149.73 Y107.24 E56.32549
G1 X149.89 Y106.11 E56.46153
G1 X150.19 Y105.10 E56.58884
G1 X150.64 Y104.13 E56.71683
G1 X151.17 Y103.31 E56.83417
G1 X151.86 Y102.51 E56.96134
G1 X152.73 Y101.77 E57.09801
G1 X153.56 Y101.24 E57.21599
G1 X154.67 Y100.75 E57.36071
G1 X154.67 Y92.10 E58.39895
G1 X154.75 Y91.18 E58.51014
G1 X154.98 Y90.28 E58.62196
G1 X155.34 Y89.46 E58.72851
G1 X155.85 Y88.68 E58.84028
G1 X156.49 Y87.99 E58.95380
G1 X157.21 Y87.44 E59.06216
G1 X158.04 Y86.99 E59.17548
G1 X158.93 Y86.69 E59.28770
G1 X159.80 Y86.55 E59.39440
G1 X160.76 Y86.55 E59.50901
G1 X161.67 Y86.71 E59.61970
G1 X162.54 Y87.01 E59.73128
G1 X163.35 Y87.46 E59.84191
G1 X164.08 Y88.03 E59.95260
G1 X164.68 Y88.69 E60.06003
G1 X165.20 Y89.49 E60.17420
G1 X165.57 Y90.34 E60.28573
G1 X165.79 Y91.21 E60.39321
G1 X165.87 Y92.13 E60.50460
G1 X165.87 Y92.21 E60.51384
G1 X165.93 Y92.78 E60.58255
G1 X166.14 Y93.36 E60.65732
G1 X166.47 Y93.87 E60.72969
G1 X166.88 Y94.29 E60.80012
G1 X167.39 Y94.61 E60.87280
G1 X167.96 Y94.81 E60.94529
G1 X168.56 Y94.88 E61.01666
G1 X173.75 Y94.88 E61.64006
G1 X174.30 Y94.95 E61.70621
G1 X174.83 Y95.15 E61.77447
G1 X175.30 Y95.49 E61.84401
G1 X175.66 Y95.92 E61.91188
G1 X175.91 Y96.41 E61.97740
G1 X176.03 Y96.97 E62.04632
G1 X180.61 Y145.49 E67.89433
G10
G0 F3600 X175.29 Y120.51
G11
G1 F1200 X175.79 Y120.36 E67.95592
G1 X176.24 Y120.06 E68.02085
G1 X176.57 Y119.68 E68.08218
G1 X176.79 Y119.20 E68.14550
G1 X176.87 Y118.68 E68.20866
G1 X176.79 Y118.15 E68.27206
G1 X176.56 Y117.66 E68.33713
G1 X176.23 Y117.28 E68.39846
G1 X175.79 Y116.99 E68.46167
G1 X175.28 Y116.84 E68.52508
G1 X174.74 Y116.85 E68.59000
G1 X174.25 Y116.99 E68.65159
G1 X173.79 Y117.29 E68.71652
G1 X173.46 Y117.68 E68.77786
G1 X173.24 Y118.16 E68.84117
G1 X173.16 Y118.68 E68.90445
G1 X173.24 Y119.20 E68.96773
G1 X173.47 Y119.69 E69.03280
G1 X173.80 Y120.08 E69.09413
G1 X174.25 Y120.36 E69.15734
G1 X174.75 Y120.51 E69.22075
G1 X175.29 Y120.51 E69.28568
G0 F3600 X175.38 Y120.79
G0 X174.08 Y120.72
G0 X172.85 Y119.31
G0 X173.12 Y117.46
G0 X173.39 Y117.16
G0 X161.87 Y96.01
G0 X161.78 Y95.72
G1 F1200 X162.43 Y95.37 E69.37474
G1 X163.04 Y94.87 E69.46941
G1 X163.52 Y94.27 E69.56113
G1 X163.88 Y93.60 E69.65276
G1 X164.09 Y92.89 E69.74166
G1 X164.17 Y92.13 E69.83356
G1 X164.09 Y91.34 E69.92803
G1 X163.86 Y90.61 E70.01954
G1 X163.51 Y89.96 E70.10860
G1 X163.01 Y89.35 E70.20328
G1 X162.41 Y88.87 E70.29499
G1 X161.74 Y88.52 E70.38662
G1 X161.03 Y88.30 E70.47553
G1 X160.26 Y88.23 E70.56741
G1 X159.48 Y88.31 E70.66175
G1 X158.75 Y88.53 E70.75337
G1 X158.10 Y88.88 E70.84243
G1 X157.49 Y89.39 E70.93711
G1 X157.01 Y89.98 E71.02883
G1 X156.66 Y90.66 E71.12045
G1 X156.44 Y91.37 E71.20936
G1 X156.36 Y92.13 E71.30102
G1 X156.45 Y92.91 E71.39561
G1 X156.67 Y93.64 E71.48723
G1 X157.02 Y94.29 E71.57629
G1 X157.53 Y94.90 E71.67097
G1 X158.12 Y95.38 E71.76269
G1 X158.80 Y95.74 E71.85431
G1 X159.51 Y95.95 E71.94322
G1 X160.26 Y96.03 E72.03486
G1 X161.05 Y95.95 E72.12944
G1 X161.78 Y95.72 E72.22107
G0 F3600 X162.07 Y96.17
;TYPE:FILL
G1 F1200 X176.80 Y110.90 E74.72041
G0 F3600 X176.86 Y111.52
G1 F1200 X161.66 Y96.32 E77.30036
G0 F3600 X161.23 Y96.46
G1 F1200 X176.92 Y112.15 E79.96355
G0 F3600 X176.98 Y112.77
G1 F1200 X160.73 Y96.52 E82.72177
G0 F3600 X160.20 Y96.56
G1 F1200 X177.04 Y113.40 E85.57885
G0 F3600 X177.10 Y114.02
G1 F1200 X159.57 Y96.50 E88.55243
G0 F3600 X158.82 Y96.31
G1 F1200 X177.16 Y114.65 E91.66483
G0 F3600 X177.22 Y115.27
G1 F1200 X157.60 Y95.65 E94.99437
G0 F3600 X156.72 Y94.78
G1 F1200 X155.21 Y93.26 E95.25199
G0 F3600 X155.21 Y93.83
G1 F1200 X177.27 Y115.90 E98.99671
G0 F3600 X177.33 Y116.52
G1 F1200 X155.21 Y94.39 E102.75170
G0 F3600 X155.21 Y94.96
G1 F1200 X177.39 Y117.15 E106.51654
G0 F3600 X176.85 Y117.17
G1 F1200 X177.45 Y117.77 E106.61785
G0 F3600 X177.35 Y118.24
G1 F1200 X177.45 Y118.62 E106.64498
G1 X177.44 Y119.18 E106.67527
G1 X177.38 Y119.69 E106.72748
G1 X177.69 Y120.27 E106.80632
G0 F3600 X177.75 Y120.89
G1 F1200 X176.94 Y120.08 E106.94387
G0 F3600 X176.67 Y120.39
G1 F1200 X177.80 Y121.52 E107.13606
G0 F3600 X177.86 Y122.14
G1 F1200 X176.35 Y120.63 E107.39231
G0 F3600 X176.01 Y120.86
G1 F1200 X177.92 Y122.77 E107.71679
G0 F3600 X177.98 Y123.39
G1 F1200 X175.57 Y120.99 E108.12536
G0 F3600 X175.07 Y121.05
G1 F1200 X178.04 Y124.02 E108.62921
G0 F3600 X178.10 Y124.64
G1 F1200 X174.44 Y120.98 E109.25050
G0 F3600 X172.98 Y121.22
G1 F1200 X178.28 Y126.52 E110.14927
G0 F3600 X178.22 Y125.89
G1 F1200 X172.88 Y120.56 E111.05414
G0 F3600 X172.79 Y119.90
G1 F1200 X178.16 Y125.27 E111.96495
G0 F3600 X178.34 Y127.14
G1 F1200 X173.07 Y121.88 E112.85777
G0 F3600 X173.17 Y122.54
G1 F1200 X178.39 Y127.77 E113.74456
G0 F3600 X178.45 Y128.39
G1 F1200 X173.26 Y123.20 E114.62525
G0 F3600 X173.36 Y123.86
G1 F1200 X178.51 Y129.01 E115.50000
G0 F3600 X178.57 Y129.64
G1 F1200 X173.45 Y124.52 E116.36864
G0 F3600 X173.54 Y125.18
G1 F1200 X178.63 Y130.26 E117.23142
G0 F3600 X178.69 Y130.89
G1 F1200 X173.64 Y125.84 E118.08810
G0 F3600 X173.73 Y126.50
G1 F1200 X178.75 Y131.51 E118.93883
G0 F3600 X178.81 Y132.14
G1 F1200 X173.83 Y127.16 E119.78362
G0 F3600 X173.92 Y127.82
G1 F1200 X178.87 Y132.76 E120.62231
G0 F3600 X178.92 Y133.39
G1 F1200 X174.02 Y128.48 E121.45505
G0 F3600 X174.11 Y129.14
G1 F1200 X178.98 Y134.01 E122.28169
G0 F3600 X179.04 Y134.63
G1 F1200 X174.21 Y129.80 E123.10230
G0 F3600 X174.30 Y130.46
G1 F1200 X179.10 Y135.26 E123.91680
G0 F3600 X179.16 Y135.88
G1 F1200 X174.40 Y131.12 E124.72545
G0 F3600 X174.49 Y131.78
G1 F1200 X179.22 Y136.51 E125.52807
G0 F3600 X179.28 Y137.13
G1 F1200 X174.58 Y132.44 E126.32467
G0 F3600 X174.68 Y133.10
G1 F1200 X179.34 Y137.76 E127.11533
G0 F3600 X179.40 Y138.38
G1 F1200 X174.77 Y133.76 E127.89988
G0 F3600 X174.87 Y134.42
G1 F1200 X179.45 Y139.01 E128.67849
G0 F3600 X179.51 Y139.63
G1 F1200 X174.96 Y135.08 E129.45107
G0 F3600 X175.06 Y135.74
G1 F1200 X179.57 Y140.26 E130.21764
G0 F3600 X179.63 Y140.88
G1 F1200 X175.15 Y136.40 E130.97809
G0 F3600 X175.24 Y137.06
G1 F1200 X179.69 Y141.51 E131.73260
G0 F3600 X179.30 Y141.68
G1 F1200 X175.34 Y137.72 E132.40446
G0 F3600 X175.43 Y138.38
G1 F1200 X178.35 Y141.30 E132.90026
G0 F3600 X177.79 Y141.31
G1 F1200 X175.53 Y139.04 E133.28464
G0 F3600 X175.62 Y139.70
G1 F1200 X177.33 Y141.41 E133.57399
G0 F3600 X176.92 Y141.56
G1 F1200 X175.72 Y140.36 E133.77772
G0 F3600 X175.81 Y141.02
G1 F1200 X176.57 Y141.78 E133.90729
G0 F3600 X176.28 Y142.06
G1 F1200 X175.90 Y141.68 E133.97093
G10
G0 F3600 X176.47 Y145.64
G11
G1 F1200 X177.76 Y146.93 E134.19019
G0 F3600 X178.05 Y146.94
G1 F1200 X176.88 Y145.77 E134.38832
G0 F3600 X177.35 Y145.95
G1 F1200 X178.33 Y146.94 E134.55514
G0 F3600 X178.33 Y146.94
G1 F1200 X180.04 Y145.23 E134.84517
G0 F3600 X180.04 Y145.25
